ocio/luts/CLog3_to_lin.spi1d
Version 1
From 0.0000000000 1.0000000000
Length 4096
Components 1
{
  -7.3813340025e-02
  -7.3608524536e-02
  -7.3404022381e-02
  -7.3199833081e-02
  -7.2995956159e-02
  -7.2792391135e-02
  -7.2589137533e-02
  -7.2386194876e-02
  -7.2183562689e-02
  -7.1981240496e-02
  -7.1779227824e-02
  -7.1577524199e-02
  -7.1376129148e-02
  -7.1175042199e-02
  -7.0974262880e-02
  -7.0773790722e-02
  -7.0573625254e-02
  -7.0373766006e-02
  -7.0174212512e-02
  -6.9974964301e-02
  -6.9776020909e-02
  -6.9577381868e-02
  -6.9379046713e-02
  -6.9181014978e-02
  -6.8983286201e-02
  -6.8785859916e-02
  -6.8588735662e-02
  -6.8391912976e-02
  -6.8195391398e-02
  -6.7999170466e-02
  -6.7803249720e-02
  -6.7607628701e-02
  -6.7412306951e-02
  -6.7217284012e-02
  -6.7022559427e-02
  -6.6828132739e-02
  -6.6634003492e-02
  -6.6440171232e-02
  -6.6246635504e-02
  -6.6053395855e-02
  -6.5860451831e-02
  -6.5667802981e-02
  -6.5475448852e-02
  -6.5283388994e-02
  -6.5091622957e-02
  -6.4900150291e-02
  -6.4708970547e-02
  -6.4518083278e-02
  -6.4327488035e-02
  -6.4137184373e-02
  -6.3947171844e-02
  -6.3757450004e-02
  -6.3568018408e-02
  -6.3378876612e-02
  -6.3190024172e-02
  -6.3001460646e-02
  -6.2813185592e-02
  -6.2625198569e-02
  -6.2437499135e-02
  -6.2250086851e-02
  -6.2062961278e-02
  -6.1876121977e-02
  -6.1689568510e-02
  -6.1503300440e-02
  -6.1317317330e-02
  -6.1131618744e-02
  -6.0946204247e-02
  -6.0761073405e-02
  -6.0576225783e-02
  -6.0391660948e-02
  -6.0207378467e-02
  -6.0023377909e-02
  -5.9839658842e-02
  -5.9656220836e-02
  -5.9473063461e-02
  -5.9290186287e-02
  -5.9107588885e-02
  -5.8925270828e-02
  -5.8743231689e-02
  -5.8561471040e-02
  -5.8379988455e-02
  -5.8198783510e-02
  -5.8017855779e-02
  -5.7837204838e-02
  -5.7656830265e-02
  -5.7476731635e-02
  -5.7296908527e-02
  -5.7117360520e-02
  -5.6938087192e-02
  -5.6759088124e-02
  -5.6580362895e-02
  -5.6401911087e-02
  -5.6223732282e-02
  -5.6045826061e-02
  -5.5868192009e-02
  -5.5690829708e-02
  -5.5513738743e-02
  -5.5336918698e-02
  -5.5160369160e-02
  -5.4984089714e-02
  -5.4808079947e-02
  -5.4632339447e-02
  -5.4456867802e-02
  -5.4281664600e-02
  -5.4106729430e-02
  -5.3932061883e-02
  -5.3757661550e-02
  -5.3583528021e-02
  -5.3409660888e-02
  -5.3236059744e-02
  -5.3062724182e-02
  -5.2889653795e-02
  -5.2716848178e-02
  -5.2544306926e-02
  -5.2372029635e-02
  -5.2200015899e-02
  -5.2028265318e-02
  -5.1856777486e-02
  -5.1685552004e-02
  -5.1514588469e-02
  -5.1343886481e-02
  -5.1173445639e-02
  -5.1003265545e-02
  -5.0833345798e-02
  -5.0663686002e-02
  -5.0494285758e-02
  -5.0325144668e-02
  -5.0156262338e-02
  -4.9987638370e-02
  -4.9819272370e-02
  -4.9651163942e-02
  -4.9483312694e-02
  -4.9315718231e-02
  -4.9148380160e-02
  -4.8981298090e-02
  -4.8814471628e-02
  -4.8647900384e-02
  -4.8481583967e-02
  -4.8315521988e-02
  -4.8149714057e-02
  -4.7984159785e-02
  -4.7818858784e-02
  -4.7653810668e-02
  -4.7489015048e-02
  -4.7324471540e-02
  -4.7160179756e-02
  -4.6996139312e-02
  -4.6832349824e-02
  -4.6668810908e-02
  -4.6505522179e-02
  -4.6342483257e-02
  -4.6179693757e-02
  -4.6017153299e-02
  -4.5854861502e-02
  -4.5692817985e-02
  -4.5531022369e-02
  -4.5369474274e-02
  -4.5208173322e-02
  -4.5047119134e-02
  -4.4886311333e-02
  -4.4725749542e-02
  -4.4565433385e-02
  -4.4405362486e-02
  -4.4245536469e-02
  -4.4085954961e-02
  -4.3926617586e-02
  -4.3767523972e-02
  -4.3608673746e-02
  -4.3450066535e-02
  -4.3291701968e-02
  -4.3133579673e-02
  -4.2975699279e-02
  -4.2818060417e-02
  -4.2660662717e-02
  -4.2503505811e-02
  -4.2346589329e-02
  -4.2189912904e-02
  -4.2033476169e-02
  -4.1877278757e-02
  -4.1721320301e-02
  -4.1565600437e-02
  -4.1410118800e-02
  -4.1254875024e-02
  -4.1099868746e-02
  -4.0945099603e-02
  -4.0790567232e-02
  -4.0636271271e-02
  -4.0482211357e-02
  -4.0328387130e-02
  -4.0174798230e-02
  -4.0021444296e-02
  -3.9868324969e-02
  -3.9715439890e-02
  -3.9562788700e-02
  -3.9410371042e-02
  -3.9258186559e-02
  -3.9106234893e-02
  -3.8954515689e-02
  -3.8803028591e-02
  -3.8651773243e-02
  -3.8500749293e-02
  -3.8349956384e-02
  -3.8199394164e-02
  -3.8049062281e-02
  -3.7898960380e-02
  -3.7749088112e-02
  -3.7599445124e-02
  -3.7450031066e-02
  -3.7300845587e-02
  -3.7151888338e-02
  -3.7003158970e-02
  -3.6854657133e-02
  -3.6706382481e-02
  -3.6558334665e-02
  -3.6410513338e-02
  -3.6262918154e-02
  -3.6115548767e-02
  -3.5968404831e-02
  -3.5821486002e-02
  -3.5674791936e-02
  -3.5528322287e-02
  -3.5382076713e-02
  -3.5236054872e-02
  -3.5090256420e-02
  -3.4944681017e-02
  -3.4799328321e-02
  -3.4654197991e-02
  -3.4509289687e-02
  -3.4364603069e-02
  -3.4220137798e-02
  -3.4075893537e-02
  -3.3931869945e-02
  -3.3788066687e-02
  -3.3644483424e-02
  -3.3501119821e-02
  -3.3357975541e-02
  -3.3215050248e-02
  -3.3072343609e-02
  -3.2929855287e-02
  -3.2787584950e-02
  -3.2645532264e-02
  -3.2503696895e-02
  -3.2362078511e-02
  -3.2220676781e-02
  -3.2079491373e-02
  -3.1938521956e-02
  -3.1797768199e-02
  -3.1657229773e-02
  -3.1516906348e-02
  -3.1376797595e-02
  -3.1236903186e-02
  -3.1097222793e-02
  -3.0957756088e-02
  -3.0818502746e-02
  -3.0679462438e-02
  -3.0540634840e-02
  -3.0402019625e-02
  -3.0263616470e-02
  -3.0125425049e-02
  -2.9987445038e-02
  -2.9849676115e-02
  -2.9712117956e-02
  -2.9574770240e-02
  -2.9437632642e-02
  -2.9300704844e-02
  -2.9163986523e-02
  -2.9027477359e-02
  -2.8891177032e-02
  -2.8755085222e-02
  -2.8619201611e-02
  -2.8483525880e-02
  -2.8348057712e-02
  -2.8212796787e-02
  -2.8077742790e-02
  -2.7942895404e-02
  -2.7808254313e-02
  -2.7673819201e-02
  -2.7539589753e-02
  -2.7405565655e-02
  -2.7271746592e-02
  -2.7138132250e-02
  -2.7004722317e-02
  -2.6871516480e-02
  -2.6738514426e-02
  -2.6605715844e-02
  -2.6473120422e-02
  -2.6340727850e-02
  -2.6208537818e-02
  -2.6076550015e-02
  -2.5944764131e-02
  -2.5813179860e-02
  -2.5681796890e-02
  -2.5550614916e-02
  -2.5419633629e-02
  -2.5288852722e-02
  -2.5158271889e-02
  -2.5027890824e-02
  -2.4897709221e-02
  -2.4767726774e-02
  -2.4637943180e-02
  -2.4508358134e-02
  -2.4378971332e-02
  -2.4249782471e-02
  -2.4120791249e-02
  -2.3991997362e-02
  -2.3863400509e-02
  -2.3735000388e-02
  -2.3606796699e-02
  -2.3478789141e-02
  -2.3350977414e-02
  -2.3223361219e-02
  -2.3095940255e-02
  -2.2968714225e-02
  -2.2841682831e-02
  -2.2714845774e-02
  -2.2588202757e-02
  -2.2461753484e-02
  -2.2335497658e-02
  -2.2209434983e-02
  -2.2083565164e-02
  -2.1957887905e-02
  -2.1832402912e-02
  -2.1707109891e-02
  -2.1582008548e-02
  -2.1457098590e-02
  -2.1332379724e-02
  -2.1207851658e-02
  -2.1083514100e-02
  -2.0959366759e-02
  -2.0835409342e-02
  -2.0711641561e-02
  -2.0588063124e-02
  -2.0464673743e-02
  -2.0341473128e-02
  -2.0218460989e-02
  -2.0095637040e-02
  -1.9973000991e-02
  -1.9850552556e-02
  -1.9728291447e-02
  -1.9606217378e-02
  -1.9484330062e-02
  -1.9362629215e-02
  -1.9241114550e-02
  -1.9119785783e-02
  -1.8998642630e-02
  -1.8877684806e-02
  -1.8756912028e-02
  -1.8636324013e-02
  -1.8515920479e-02
  -1.8395701142e-02
  -1.8275665722e-02
  -1.8155813936e-02
  -1.8036145504e-02
  -1.7916660146e-02
  -1.7797357582e-02
  -1.7678237531e-02
  -1.7559299714e-02
  -1.7440543853e-02
  -1.7321969670e-02
  -1.7203576886e-02
  -1.7085365224e-02
  -1.6967334406e-02
  -1.6849484157e-02
  -1.6731814200e-02
  -1.6614324259e-02
  -1.6497014058e-02
  -1.6379883324e-02
  -1.6262931780e-02
  -1.6146159154e-02
  -1.6029565171e-02
  -1.5913149557e-02
  -1.5796912041e-02
  -1.5680852350e-02
  -1.5564970212e-02
  -1.5449265354e-02
  -1.5333737506e-02
  -1.5218386397e-02
  -1.5103211757e-02
  -1.4988213316e-02
  -1.4873390803e-02
  -1.4758743951e-02
  -1.4644272490e-02
  -1.4529976151e-02
  -1.4415854668e-02
  -1.4301907772e-02
  -1.4188135197e-02
  -1.4074536676e-02
  -1.3961111941e-02
  -1.3847860729e-02
  -1.3734782772e-02
  -1.3621877807e-02
  -1.3509145568e-02
  -1.3396585791e-02
  -1.3284198213e-02
  -1.3171982569e-02
  -1.3059938598e-02
  -1.2948066035e-02
  -1.2836364620e-02
  -1.2724834090e-02
  -1.2613474184e-02
  -1.2502220012e-02
  -1.2390965915e-02
  -1.2279711819e-02
  -1.2168457723e-02
  -1.2057203627e-02
  -1.1945949530e-02
  -1.1834695434e-02
  -1.1723441338e-02
  -1.1612187242e-02
  -1.1500933145e-02
  -1.1389679049e-02
  -1.1278424953e-02
  -1.1167170857e-02
  -1.1055916760e-02
  -1.0944662664e-02
  -1.0833408568e-02
  -1.0722154472e-02
  -1.0610900376e-02
  -1.0499646279e-02
  -1.0388392183e-02
  -1.0277138087e-02
  -1.0165883991e-02
  -1.0054629894e-02
  -9.9433757981e-03
  -9.8321217019e-03
  -9.7208676056e-03
  -9.6096135094e-03
  -9.4983594132e-03
  -9.3871053169e-03
  -9.2758512207e-03
  -9.1645971245e-03
  -9.0533430282e-03
  -8.9420889320e-03
  -8.8308348358e-03
  -8.7195807395e-03
  -8.6083266433e-03
  -8.4970725470e-03
  -8.3858184508e-03
  -8.2745643546e-03
  -8.1633102583e-03
  -8.0520561621e-03
  -7.9408020659e-03
  -7.8295479696e-03
  -7.7182938734e-03
  -7.6070397772e-03
  -7.4957856809e-03
  -7.3845315847e-03
  -7.2732774885e-03
  -7.1620233922e-03
  -7.0507692960e-03
  -6.9395151998e-03
  -6.8282611035e-03
  -6.7170070073e-03
  -6.6057529110e-03
  -6.4944988148e-03
  -6.3832447186e-03
  -6.2719906223e-03
  -6.1607365261e-03
  -6.0494824299e-03
  -5.9382283336e-03
  -5.8269742374e-03
  -5.7157201412e-03
  -5.6044660449e-03
  -5.4932119487e-03
  -5.3819578525e-03
  -5.2707037562e-03
  -5.1594496600e-03
  -5.0481955637e-03
  -4.9369414675e-03
  -4.8256873713e-03
  -4.7144332750e-03
  -4.6031791788e-03
  -4.4919250826e-03
  -4.3806709863e-03
  -4.2694168901e-03
  -4.1581627939e-03
  -4.0469086976e-03
  -3.9356546014e-03
  -3.8244005052e-03
  -3.7131464089e-03
  -3.6018923127e-03
  -3.4906382165e-03
  -3.3793841202e-03
  -3.2681300240e-03
  -3.1568759277e-03
  -3.0456218315e-03
  -2.9343677353e-03
  -2.8231136390e-03
  -2.7118595428e-03
  -2.6006054466e-03
  -2.4893513503e-03
  -2.3780972541e-03
  -2.2668431579e-03
  -2.1555890616e-03
  -2.0443349654e-03
  -1.9330808692e-03
  -1.8218267729e-03
  -1.7105726767e-03
  -1.5993185805e-03
  -1.4880644842e-03
  -1.3768103880e-03
  -1.2655562917e-03
  -1.1543021955e-03
  -1.0430480993e-03
  -9.3179400304e-04
  -8.2053990681e-04
  -7.0928581057e-04
  -5.9803171434e-04
  -4.8677761810e-04
  -3.7552352186e-04
  -2.6426942563e-04
  -1.5301532939e-04
  -4.1761233158e-05
  6.9492863077e-05
  1.8074695931e-04
  2.9200105555e-04
  4.0325515178e-04
  5.1450924802e-04
  6.2576334425e-04
  7.3701744049e-04
  8.4827153672e-04
  9.5952563296e-04
  1.0707797292e-03
  1.1820338254e-03
  1.2932879217e-03
  1.4045420179e-03
  1.5157961141e-03
  1.6270502104e-03
  1.7383043066e-03
  1.8495584028e-03
  1.9608124991e-03
  2.0720665953e-03
  2.1833206915e-03
  2.2945747878e-03
  2.4058288840e-03
  2.5170829803e-03
  2.6283370765e-03
  2.7395911727e-03
  2.8508452690e-03
  2.9620993652e-03
  3.0733534614e-03
  3.1846075577e-03
  3.2958616539e-03
  3.4071157501e-03
  3.5183698464e-03
  3.6296239426e-03
  3.7408780388e-03
  3.8521321351e-03
  3.9633862313e-03
  4.0746403276e-03
  4.1858944238e-03
  4.2971485200e-03
  4.4084026163e-03
  4.5196567125e-03
  4.6309108087e-03
  4.7421649050e-03
  4.8534190012e-03
  4.9646730974e-03
  5.0759271937e-03
  5.1871812899e-03
  5.2984353861e-03
  5.4096894824e-03
  5.5209435786e-03
  5.6321976748e-03
  5.7434517711e-03
  5.8547058673e-03
  5.9659599636e-03
  6.0772140598e-03
  6.1884681560e-03
  6.2997222523e-03
  6.4109763485e-03
  6.5222304447e-03
  6.6334845410e-03
  6.7447386372e-03
  6.8559927334e-03
  6.9672468297e-03
  7.0785009259e-03
  7.1897550221e-03
  7.3010091184e-03
  7.4122632146e-03
  7.5235173108e-03
  7.6347714071e-03
  7.7460255033e-03
  7.8572795996e-03
  7.9685336958e-03
  8.0797877920e-03
  8.1910418883e-03
  8.3022959845e-03
  8.4135500807e-03
  8.5248041770e-03
  8.6360582732e-03
  8.7473123694e-03
  8.8585664657e-03
  8.9698205619e-03
  9.0810746581e-03
  9.1923287544e-03
  9.3035828506e-03
  9.4148369468e-03
  9.5260910431e-03
  9.6373451393e-03
  9.7485992356e-03
  9.8598533318e-03
  9.9711074280e-03
  1.0082361524e-02
  1.0193615620e-02
  1.0304869717e-02
  1.0416123813e-02
  1.0527377909e-02
  1.0638632005e-02
  1.0749886102e-02
  1.0861140198e-02
  1.0972394294e-02
  1.1083648390e-02
  1.1194902487e-02
  1.1306156583e-02
  1.1417410679e-02
  1.1528664775e-02
  1.1639918872e-02
  1.1751172968e-02
  1.1862427064e-02
  1.1973681160e-02
  1.2084935256e-02
  1.2196189353e-02
  1.2307443449e-02
  1.2418697545e-02
  1.2529951641e-02
  1.2641216238e-02
  1.2752618650e-02
  1.2864191751e-02
  1.2975935803e-02
  1.3087851067e-02
  1.3199937806e-02
  1.3312196282e-02
  1.3424626758e-02
  1.3537229499e-02
  1.3650004767e-02
  1.3762952828e-02
  1.3876073947e-02
  1.3989368387e-02
  1.4102836415e-02
  1.4216478297e-02
  1.4330294299e-02
  1.4444284688e-02
  1.4558449732e-02
  1.4672789697e-02
  1.4787304851e-02
  1.4901995464e-02
  1.5016861804e-02
  1.5131904141e-02
  1.5247122743e-02
  1.5362517881e-02
  1.5478089825e-02
  1.5593838847e-02
  1.5709765218e-02
  1.5825869209e-02
  1.5942151093e-02
  1.6058611142e-02
  1.6175249628e-02
  1.6292066827e-02
  1.6409063011e-02
  1.6526238454e-02
  1.6643593431e-02
  1.6761128218e-02
  1.6878843090e-02
  1.6996738322e-02
  1.7114814192e-02
  1.7233070975e-02
  1.7351508950e-02
  1.7470128393e-02
  1.7588929582e-02
  1.7707912797e-02
  1.7827078316e-02
  1.7946426419e-02
  1.8065957384e-02
  1.8185671493e-02
  1.8305569026e-02
  1.8425650263e-02
  1.8545915488e-02
  1.8666364980e-02
  1.8786999023e-02
  1.8907817900e-02
  1.9028821893e-02
  1.9150011287e-02
  1.9271386364e-02
  1.9392947411e-02
  1.9514694712e-02
  1.9636628551e-02
  1.9758749216e-02
  1.9881056992e-02
  2.0003552165e-02
  2.0126235024e-02
  2.0249105855e-02
  2.0372164947e-02
  2.0495412588e-02
  2.0618849067e-02
  2.0742474673e-02
  2.0866289697e-02
  2.0990294427e-02
  2.1114489156e-02
  2.1238874173e-02
  2.1363449772e-02
  2.1488216242e-02
  2.1613173878e-02
  2.1738322972e-02
  2.1863663817e-02
  2.1989196708e-02
  2.2114921937e-02
  2.2240839801e-02
  2.2366950594e-02
  2.2493254612e-02
  2.2619752150e-02
  2.2746443506e-02
  2.2873328977e-02
  2.3000408859e-02
  2.3127683451e-02
  2.3255153050e-02
  2.3382817957e-02
  2.3510678470e-02
  2.3638734888e-02
  2.3766987512e-02
  2.3895436643e-02
  2.4024082581e-02
  2.4152925628e-02
  2.4281966087e-02
  2.4411204259e-02
  2.4540640447e-02
  2.4670274956e-02
  2.4800108088e-02
  2.4930140149e-02
  2.5060371442e-02
  2.5190802274e-02
  2.5321432949e-02
  2.5452263775e-02
  2.5583295057e-02
  2.5714527103e-02
  2.5845960221e-02
  2.5977594719e-02
  2.6109430904e-02
  2.6241469087e-02
  2.6373709576e-02
  2.6506152682e-02
  2.6638798715e-02
  2.6771647987e-02
  2.6904700807e-02
  2.7037957489e-02
  2.7171418344e-02
  2.7305083686e-02
  2.7438953828e-02
  2.7573029083e-02
  2.7707309766e-02
  2.7841796192e-02
  2.7976488675e-02
  2.8111387532e-02
  2.8246493079e-02
  2.8381805632e-02
  2.8517325509e-02
  2.8653053027e-02
  2.8788988505e-02
  2.8925132260e-02
  2.9061484613e-02
  2.9198045882e-02
  2.9334816389e-02
  2.9471796452e-02
  2.9608986395e-02
  2.9746386537e-02
  2.9883997201e-02
  3.0021818711e-02
  3.0159851388e-02
  3.0298095556e-02
  3.0436551540e-02
  3.0575219664e-02
  3.0714100252e-02
  3.0853193631e-02
  3.0992500127e-02
  3.1132020066e-02
  3.1271753775e-02
  3.1411701581e-02
  3.1551863813e-02
  3.1692240799e-02
  3.1832832869e-02
  3.1973640351e-02
  3.2114663576e-02
  3.2255902875e-02
  3.2397358578e-02
  3.2539031017e-02
  3.2680920524e-02
  3.2823027432e-02
  3.2965352073e-02
  3.3107894782e-02
  3.3250655893e-02
  3.3393635740e-02
  3.3536834658e-02
  3.3680252982e-02
  3.3823891051e-02
  3.3967749198e-02
  3.4111827763e-02
  3.4256127083e-02
  3.4400647496e-02
  3.4545389340e-02
  3.4690352955e-02
  3.4835538682e-02
  3.4980946859e-02
  3.5126577828e-02
  3.5272431931e-02
  3.5418509508e-02
  3.5564810904e-02
  3.5711336460e-02
  3.5858086519e-02
  3.6005061427e-02
  3.6152261527e-02
  3.6299687165e-02
  3.6447338686e-02
  3.6595216436e-02
  3.6743320761e-02
  3.6891652010e-02
  3.7040210529e-02
  3.7188996668e-02
  3.7338010773e-02
  3.7487253196e-02
  3.7636724285e-02
  3.7786424392e-02
  3.7936353866e-02
  3.8086513060e-02
  3.8236902325e-02
  3.8387522014e-02
  3.8538372480e-02
  3.8689454077e-02
  3.8840767158e-02
  3.8992312078e-02
  3.9144089193e-02
  3.9296098859e-02
  3.9448341431e-02
  3.9600817266e-02
  3.9753526723e-02
  3.9906470158e-02
  4.0059647931e-02
  4.0213060400e-02
  4.0366707925e-02
  4.0520590866e-02
  4.0674709584e-02
  4.0829064440e-02
  4.0983655796e-02
  4.1138484014e-02
  4.1293549457e-02
  4.1448852489e-02
  4.1604393474e-02
  4.1760172776e-02
  4.1916190760e-02
  4.2072447793e-02
  4.2228944240e-02
  4.2385680468e-02
  4.2542656844e-02
  4.2699873738e-02
  4.2857331516e-02
  4.3015030548e-02
  4.3172971204e-02
  4.3331153855e-02
  4.3489578870e-02
  4.3648246621e-02
  4.3807157480e-02
  4.3966311819e-02
  4.4125710013e-02
  4.4285352433e-02
  4.4445239455e-02
  4.4605371453e-02
  4.4765748803e-02
  4.4926371880e-02
  4.5087241061e-02
  4.5248356723e-02
  4.5409719243e-02
  4.5571329001e-02
  4.5733186374e-02
  4.5895291743e-02
  4.6057645487e-02
  4.6220247986e-02
  4.6383099622e-02
  4.6546200777e-02
  4.6709551832e-02
  4.6873153171e-02
  4.7037005177e-02
  4.7201108235e-02
  4.7365462729e-02
  4.7530069043e-02
  4.7694927565e-02
  4.7860038680e-02
  4.8025402776e-02
  4.8191020239e-02
  4.8356891459e-02
  4.8523016824e-02
  4.8689396724e-02
  4.8856031548e-02
  4.9022921687e-02
  4.9190067532e-02
  4.9357469475e-02
  4.9525127909e-02
  4.9693043226e-02
  4.9861215820e-02
  5.0029646085e-02
  5.0198334417e-02
  5.0367281209e-02
  5.0536486860e-02
  5.0705951764e-02
  5.0875676319e-02
  5.1045660924e-02
  5.1215905976e-02
  5.1386411874e-02
  5.1557179019e-02
  5.1728207811e-02
  5.1899498650e-02
  5.2071051937e-02
  5.2242868076e-02
  5.2414947469e-02
  5.2587290518e-02
  5.2759897629e-02
  5.2932769206e-02
  5.3105905653e-02
  5.3279307377e-02
  5.3452974784e-02
  5.3626908282e-02
  5.3801108278e-02
  5.3975575179e-02
  5.4150309396e-02
  5.4325311338e-02
  5.4500581415e-02
  5.4676120038e-02
  5.4851927618e-02
  5.5028004567e-02
  5.5204351299e-02
  5.5380968226e-02
  5.5557855762e-02
  5.5735014323e-02
  5.5912444323e-02
  5.6090146178e-02
  5.6268120305e-02
  5.6446367121e-02
  5.6624887043e-02
  5.6803680491e-02
  5.6982747883e-02
  5.7162089639e-02
  5.7341706180e-02
  5.7521597926e-02
  5.7701765299e-02
  5.7882208721e-02
  5.8062928616e-02
  5.8243925407e-02
  5.8425199518e-02
  5.8606751374e-02
  5.8788581401e-02
  5.8970690024e-02
  5.9153077672e-02
  5.9335744771e-02
  5.9518691749e-02
  5.9701919035e-02
  5.9885427059e-02
  6.0069216251e-02
  6.0253287042e-02
  6.0437639863e-02
  6.0622275146e-02
  6.0807193324e-02
  6.0992394831e-02
  6.1177880100e-02
  6.1363649567e-02
  6.1549703666e-02
  6.1736042835e-02
  6.1922667509e-02
  6.2109578126e-02
  6.2296775125e-02
  6.2484258943e-02
  6.2672030022e-02
  6.2860088799e-02
  6.3048435718e-02
  6.3237071218e-02
  6.3425995742e-02
  6.3615209734e-02
  6.3804713636e-02
  6.3994507892e-02
  6.4184592948e-02
  6.4374969250e-02
  6.4565637242e-02
  6.4756597373e-02
  6.4947850089e-02
  6.5139395840e-02
  6.5331235074e-02
  6.5523368241e-02
  6.5715795791e-02
  6.5908518175e-02
  6.6101535846e-02
  6.6294849254e-02
  6.6488458854e-02
  6.6682365100e-02
  6.6876568445e-02
  6.7071069346e-02
  6.7265868257e-02
  6.7460965636e-02
  6.7656361940e-02
  6.7852057627e-02
  6.8048053155e-02
  6.8244348985e-02
  6.8440945575e-02
  6.8637843388e-02
  6.8835042884e-02
  6.9032544526e-02
  6.9230348776e-02
  6.9428456099e-02
  6.9626866959e-02
  6.9825581820e-02
  7.0024601149e-02
  7.0223925411e-02
  7.0423555076e-02
  7.0623490609e-02
  7.0823732480e-02
  7.1024281158e-02
  7.1225137114e-02
  7.1426300818e-02
  7.1627772741e-02
  7.1829553356e-02
  7.2031643136e-02
  7.2234042555e-02
  7.2436752086e-02
  7.2639772206e-02
  7.2843103390e-02
  7.3046746114e-02
  7.3250700856e-02
  7.3454968094e-02
  7.3659548307e-02
  7.3864441974e-02
  7.4069649576e-02
  7.4275171594e-02
  7.4481008509e-02
  7.4687160804e-02
  7.4893628961e-02
  7.5100413466e-02
  7.5307514803e-02
  7.5514933456e-02
  7.5722669913e-02
  7.5930724661e-02
  7.6139098186e-02
  7.6347790977e-02
  7.6556803525e-02
  7.6766136317e-02
  7.6975789846e-02
  7.7185764603e-02
  7.7396061079e-02
  7.7606679768e-02
  7.7817621163e-02
  7.8028885759e-02
  7.8240474051e-02
  7.8452386535e-02
  7.8664623708e-02
  7.8877186067e-02
  7.9090074111e-02
  7.9303288338e-02
  7.9516829248e-02
  7.9730697342e-02
  7.9944893121e-02
  8.0159417087e-02
  8.0374269743e-02
  8.0589451593e-02
  8.0804963141e-02
  8.1020804892e-02
  8.1236977352e-02
  8.1453481028e-02
  8.1670316427e-02
  8.1887484057e-02
  8.2104984428e-02
  8.2322818050e-02
  8.2540985432e-02
  8.2759487087e-02
  8.2978323527e-02
  8.3197495263e-02
  8.3417002812e-02
  8.3636846685e-02
  8.3857027400e-02
  8.4077545472e-02
  8.4298401419e-02
  8.4519595756e-02
  8.4741129004e-02
  8.4963001682e-02
  8.5185214309e-02
  8.5407767407e-02
  8.5630661496e-02
  8.5853897101e-02
  8.6077474743e-02
  8.6301394947e-02
  8.6525658237e-02
  8.6750265140e-02
  8.6975216182e-02
  8.7200511890e-02
  8.7426152793e-02
  8.7652139418e-02
  8.7878472297e-02
  8.8105151958e-02
  8.8332178935e-02
  8.8559553758e-02
  8.8787276962e-02
  8.9015349079e-02
  8.9243770644e-02
  8.9472542193e-02
  8.9701664262e-02
  8.9931137387e-02
  9.0160962108e-02
  9.0391138962e-02
  9.0621668489e-02
  9.0852551230e-02
  9.1083787725e-02
  9.1315378517e-02
  9.1547324148e-02
  9.1779625162e-02
  9.2012282105e-02
  9.2245295520e-02
  9.2478665954e-02
  9.2712393955e-02
  9.2946480070e-02
  9.3180924847e-02
  9.3415728837e-02
  9.3650892590e-02
  9.3886416656e-02
  9.4122301588e-02
  9.4358547940e-02
  9.4595156264e-02
  9.4832127115e-02
  9.5069461049e-02
  9.5307158622e-02
  9.5545220391e-02
  9.5783646915e-02
  9.6022438751e-02
  9.6261596461e-02
  9.6501120603e-02
  9.6741011741e-02
  9.6981270435e-02
  9.7221897250e-02
  9.7462892750e-02
  9.7704257498e-02
  9.7945992062e-02
  9.8188097007e-02
  9.8430572901e-02
  9.8673420313e-02
  9.8916639811e-02
  9.9160231966e-02
  9.9404197349e-02
  9.9648536532e-02
  9.9893250087e-02
  1.0013833859e-01
  1.0038380261e-01
  1.0062964273e-01
  1.0087585952e-01
  1.0112245355e-01
  1.0136942542e-01
  1.0161677569e-01
  1.0186450495e-01
  1.0211261377e-01
  1.0236110275e-01
  1.0260997245e-01
  1.0285922347e-01
  1.0310885638e-01
  1.0335887178e-01
  1.0360927025e-01
  1.0386005237e-01
  1.0411121874e-01
  1.0436276994e-01
  1.0461470656e-01
  1.0486702920e-01
  1.0511973844e-01
  1.0537283488e-01
  1.0562631911e-01
  1.0588019172e-01
  1.0613445331e-01
  1.0638910448e-01
  1.0664414582e-01
  1.0689957792e-01
  1.0715540140e-01
  1.0741161685e-01
  1.0766822486e-01
  1.0792522605e-01
  1.0818262101e-01
  1.0844041034e-01
  1.0869859466e-01
  1.0895717456e-01
  1.0921615065e-01
  1.0947552354e-01
  1.0973529384e-01
  1.0999546215e-01
  1.1025602909e-01
  1.1051699527e-01
  1.1077836129e-01
  1.1104012778e-01
  1.1130229533e-01
  1.1156486458e-01
  1.1182783613e-01
  1.1209121060e-01
  1.1235498861e-01
  1.1261917078e-01
  1.1288375772e-01
  1.1314875006e-01
  1.1341414841e-01
  1.1367995340e-01
  1.1394616566e-01
  1.1421278580e-01
  1.1447981445e-01
  1.1474725223e-01
  1.1501509979e-01
  1.1528335773e-01
  1.1555202669e-01
  1.1582110730e-01
  1.1609060020e-01
  1.1636050601e-01
  1.1663082536e-01
  1.1690155889e-01
  1.1717270723e-01
  1.1744427102e-01
  1.1771625090e-01
  1.1798864750e-01
  1.1826146146e-01
  1.1853469343e-01
  1.1880834403e-01
  1.1908241392e-01
  1.1935690373e-01
  1.1963181411e-01
  1.1990714571e-01
  1.2018289916e-01
  1.2045907512e-01
  1.2073567423e-01
  1.2101269714e-01
  1.2129014450e-01
  1.2156801696e-01
  1.2184631517e-01
  1.2212503979e-01
  1.2240419146e-01
  1.2268377084e-01
  1.2296377859e-01
  1.2324421537e-01
  1.2352508182e-01
