ocio/luts/CLog2_to_lin.spi1d
Version 1
From 0.0000000000 1.0000000000
Length 4096
Components 1
{
  -1.4726903702e-02
  -1.4668590197e-02
  -1.4610412386e-02
  -1.4552369952e-02
  -1.4494462581e-02
  -1.4436689958e-02
  -1.4379051770e-02
  -1.4321547703e-02
  -1.4264177447e-02
  -1.4206940689e-02
  -1.4149837118e-02
  -1.4092866426e-02
  -1.4036028302e-02
  -1.3979322438e-02
  -1.3922748527e-02
  -1.3866306261e-02
  -1.3809995334e-02
  -1.3753815440e-02
  -1.3697766275e-02
  -1.3641847535e-02
  -1.3586058914e-02
  -1.3530400113e-02
  -1.3474870826e-02
  -1.3419470755e-02
  -1.3364199597e-02
  -1.3309057053e-02
  -1.3254042824e-02
  -1.3199156611e-02
  -1.3144398116e-02
  -1.3089767042e-02
  -1.3035263093e-02
  -1.2980885972e-02
  -1.2926635384e-02
  -1.2872511036e-02
  -1.2818512633e-02
  -1.2764639882e-02
  -1.2710892491e-02
  -1.2657270168e-02
  -1.2603772622e-02
  -1.2550399563e-02
  -1.2497150701e-02
  -1.2444025747e-02
  -1.2391024413e-02
  -1.2338146411e-02
  -1.2285391454e-02
  -1.2232759256e-02
  -1.2180249531e-02
  -1.2127861995e-02
  -1.2075596362e-02
  -1.2023452349e-02
  -1.1971429673e-02
  -1.1919528052e-02
  -1.1867747204e-02
  -1.1816086849e-02
  -1.1764546705e-02
  -1.1713126493e-02
  -1.1661825934e-02
  -1.1610644749e-02
  -1.1559582661e-02
  -1.1508639392e-02
  -1.1457814667e-02
  -1.1407108209e-02
  -1.1356519742e-02
  -1.1306048994e-02
  -1.1255695688e-02
  -1.1205459553e-02
  -1.1155340316e-02
  -1.1105337704e-02
  -1.1055451446e-02
  -1.1005681272e-02
  -1.0956026911e-02
  -1.0906488094e-02
  -1.0857064552e-02
  -1.0807756016e-02
  -1.0758562220e-02
  -1.0709482896e-02
  -1.0660517777e-02
  -1.0611666599e-02
  -1.0562929095e-02
  -1.0514305002e-02
  -1.0465794055e-02
  -1.0417395991e-02
  -1.0369110548e-02
  -1.0320937463e-02
  -1.0272876475e-02
  -1.0224927323e-02
  -1.0177089747e-02
  -1.0129363487e-02
  -1.0081748284e-02
  -1.0034243880e-02
  -9.9868500173e-03
  -9.9395664381e-03
  -9.8923928861e-03
  -9.8453291050e-03
  -9.7983748397e-03
  -9.7515298351e-03
  -9.7047938370e-03
  -9.6581665919e-03
  -9.6116478466e-03
  -9.5652373487e-03
  -9.5189348462e-03
  -9.4727400879e-03
  -9.4266528230e-03
  -9.3806728015e-03
  -9.3347997737e-03
  -9.2890334908e-03
  -9.2433737042e-03
  -9.1978201663e-03
  -9.1523726297e-03
  -9.1070308478e-03
  -9.0617945745e-03
  -9.0166635643e-03
  -8.9716375722e-03
  -8.9267163540e-03
  -8.8818996657e-03
  -8.8371872641e-03
  -8.7925789066e-03
  -8.7480743511e-03
  -8.7036733559e-03
  -8.6593756803e-03
  -8.6151810836e-03
  -8.5710893261e-03
  -8.5271001684e-03
  -8.4832133718e-03
  -8.4394286982e-03
  -8.3957459098e-03
  -8.3521647696e-03
  -8.3086850411e-03
  -8.2653064883e-03
  -8.2220288757e-03
  -8.1788519685e-03
  -8.1357755323e-03
  -8.0927993333e-03
  -8.0499231384e-03
  -8.0071467147e-03
  -7.9644698301e-03
  -7.9218922530e-03
  -7.8794137524e-03
  -7.8370340976e-03
  -7.7947530586e-03
  -7.7525704061e-03
  -7.7104859109e-03
  -7.6684993448e-03
  -7.6266104798e-03
  -7.5848190887e-03
  -7.5431249445e-03
  -7.5015278210e-03
  -7.4600274925e-03
  -7.4186237336e-03
  -7.3773163198e-03
  -7.3361050267e-03
  -7.2949896307e-03
  -7.2539699087e-03
  -7.2130456380e-03
  -7.1722165966e-03
  -7.1314825628e-03
  -7.0908433156e-03
  -7.0502986343e-03
  -7.0098482990e-03
  -6.9694920901e-03
  -6.9292297885e-03
  -6.8890611758e-03
  -6.8489860340e-03
  -6.8090041454e-03
  -6.7691152933e-03
  -6.7293192609e-03
  -6.6896158325e-03
  -6.6500047924e-03
  -6.6104859257e-03
  -6.5710590179e-03
  -6.5317238550e-03
  -6.4924802235e-03
  -6.4533279105e-03
  -6.4142667035e-03
  -6.3752963904e-03
  -6.3364167597e-03
  -6.2976276005e-03
  -6.2589287022e-03
  -6.2203198547e-03
  -6.1818008486e-03
  -6.1433714748e-03
  -6.1050315246e-03
  -6.0667807900e-03
  -6.0286190635e-03
  -5.9905461379e-03
  -5.9525618065e-03
  -5.9146658632e-03
  -5.8768581023e-03
  -5.8391383187e-03
  -5.8015063076e-03
  -5.7639618647e-03
  -5.7265047863e-03
  -5.6891348692e-03
  -5.6518519104e-03
  -5.6146557076e-03
  -5.5775460591e-03
  -5.5405227632e-03
  -5.5035856192e-03
  -5.4667344265e-03
  -5.4299689851e-03
  -5.3932890955e-03
  -5.3566945587e-03
  -5.3201851759e-03
  -5.2837607491e-03
  -5.2474210805e-03
  -5.2111659730e-03
  -5.1749952297e-03
  -5.1389086544e-03
  -5.1029060512e-03
  -5.0669872247e-03
  -5.0311519799e-03
  -4.9954001224e-03
  -4.9597314581e-03
  -4.9241457935e-03
  -4.8886429353e-03
  -4.8532226909e-03
  -4.8178848681e-03
  -4.7826292751e-03
  -4.7474557205e-03
  -4.7123640135e-03
  -4.6773539635e-03
  -4.6424253806e-03
  -4.6075780751e-03
  -4.5728118580e-03
  -4.5381265406e-03
  -4.5035219346e-03
  -4.4689978523e-03
  -4.4345541061e-03
  -4.4001905093e-03
  -4.3659068752e-03
  -4.3317030179e-03
  -4.2975787516e-03
  -4.2635338912e-03
  -4.2295682519e-03
  -4.1956816494e-03
  -4.1618738997e-03
  -4.1281448194e-03
  -4.0944942253e-03
  -4.0609219349e-03
  -4.0274277660e-03
  -3.9940115367e-03
  -3.9606730657e-03
  -3.9274121721e-03
  -3.8942286754e-03
  -3.8611223953e-03
  -3.8280931523e-03
  -3.7951407672e-03
  -3.7622650609e-03
  -3.7294658552e-03
  -3.6967429720e-03
  -3.6640962338e-03
  -3.6315254632e-03
  -3.5990304836e-03
  -3.5666111186e-03
  -3.5342671922e-03
  -3.5019985289e-03
  -3.4698049536e-03
  -3.4376862914e-03
  -3.4056423683e-03
  -3.3736730101e-03
  -3.3417780433e-03
  -3.3099572950e-03
  -3.2782105923e-03
  -3.2465377631e-03
  -3.2149386353e-03
  -3.1834130374e-03
  -3.1519607985e-03
  -3.1205817477e-03
  -3.0892757147e-03
  -3.0580425298e-03
  -3.0268820232e-03
  -2.9957940260e-03
  -2.9647783694e-03
  -2.9338348850e-03
  -2.9029634049e-03
  -2.8721637617e-03
  -2.8414357880e-03
  -2.8107793171e-03
  -2.7801941827e-03
  -2.7496802188e-03
  -2.7192372596e-03
  -2.6888651401e-03
  -2.6585636954e-03
  -2.6283327610e-03
  -2.5981721728e-03
  -2.5680817672e-03
  -2.5380613808e-03
  -2.5081108507e-03
  -2.4782300143e-03
  -2.4484187096e-03
  -2.4186767746e-03
  -2.3890040479e-03
  -2.3594003686e-03
  -2.3298655759e-03
  -2.3003995096e-03
  -2.2710020097e-03
  -2.2416729166e-03
  -2.2124120712e-03
  -2.1832193148e-03
  -2.1540944887e-03
  -2.1250374350e-03
  -2.0960479960e-03
  -2.0671260143e-03
  -2.0382713330e-03
  -2.0094837954e-03
  -1.9807632454e-03
  -1.9521095269e-03
  -1.9235224846e-03
  -1.8950019632e-03
  -1.8665478081e-03
  -1.8381598646e-03
  -1.8098379788e-03
  -1.7815819970e-03
  -1.7533917658e-03
  -1.7252671322e-03
  -1.6972079435e-03
  -1.6692140476e-03
  -1.6412852923e-03
  -1.6134215262e-03
  -1.5856225980e-03
  -1.5578883569e-03
  -1.5302186523e-03
  -1.5026133341e-03
  -1.4750722524e-03
  -1.4475952578e-03
  -1.4201822010e-03
  -1.3928329335e-03
  -1.3655473066e-03
  -1.3383251724e-03
  -1.3111663830e-03
  -1.2840707911e-03
  -1.2570382496e-03
  -1.2300686118e-03
  -1.2031617314e-03
  -1.1763174622e-03
  -1.1495356587e-03
  -1.1228161753e-03
  -1.0961588672e-03
  -1.0695635897e-03
  -1.0430301983e-03
  -1.0165585492e-03
  -9.9014849858e-04
  -9.6379990315e-04
  -9.3751261990e-04
  -9.1128650616e-04
  -8.8512141959e-04
  -8.5901721820e-04
  -8.3297376028e-04
  -8.0699090451e-04
  -7.8106850987e-04
  -7.5520643565e-04
  -7.2940454150e-04
  -7.0366268738e-04
  -6.7798073358e-04
  -6.5235854071e-04
  -6.2679596972e-04
  -6.0129288186e-04
  -5.7584913872e-04
  -5.5046460221e-04
  -5.2513913455e-04
  -4.9987259830e-04
  -4.7466485632e-04
  -4.4951577180e-04
  -4.2442520825e-04
  -3.9939302949e-04
  -3.7441909966e-04
  -3.4950328322e-04
  -3.2464544494e-04
  -2.9984544992e-04
  -2.7510316354e-04
  -2.5041845152e-04
  -2.2579117989e-04
  -2.0122121499e-04
  -1.7670842347e-04
  -1.5225267229e-04
  -1.2785382872e-04
  -1.0351176033e-04
  -7.9226335008e-05
  -5.4997420954e-05
  -3.0824886665e-05
  -6.7086009491e-06
  1.7380753437e-05
  4.1521930770e-05
  6.5719414732e-05
  8.9973336651e-05
  1.1428382816e-04
  1.3865102121e-04
  1.6307504805e-04
  1.8755604122e-04
  2.1209413361e-04
  2.3668945839e-04
  2.6134214905e-04
  2.8605233938e-04
  3.1082016351e-04
  3.3564575584e-04
  3.6052925113e-04
  3.8547078442e-04
  4.1047049108e-04
  4.3552850680e-04
  4.6064496757e-04
  4.8582000971e-04
  5.1105376985e-04
  5.3634638495e-04
  5.6169799228e-04
  5.8710872943e-04
  6.1257873432e-04
  6.3810814519e-04
  6.6369710058e-04
  6.8934573938e-04
  7.1505420080e-04
  7.4082262437e-04
  7.6665114994e-04
  7.9253991769e-04
  8.1848906813e-04
  8.4449874209e-04
  8.7056908075e-04
  8.9670022559e-04
  9.2289231844e-04
  9.4914550145e-04
  9.7545991711e-04
  1.0018357082e-03
  1.0282730180e-03
  1.0547719898e-03
  1.0813327676e-03
  1.1079554955e-03
  1.1346403179e-03
  1.1613873797e-03
  1.1881968261e-03
  1.2150688026e-03
  1.2420034550e-03
  1.2690009294e-03
  1.2960613725e-03
  1.3231849312e-03
  1.3503717525e-03
  1.3776219840e-03
  1.4049357737e-03
  1.4323132698e-03
  1.4597546209e-03
  1.4872599760e-03
  1.5148294842e-03
  1.5424632952e-03
  1.5701615591e-03
  1.5979244261e-03
  1.6257520469e-03
  1.6536445726e-03
  1.6816021545e-03
  1.7096249444e-03
  1.7377130943e-03
  1.7658667568e-03
  1.7940860845e-03
  1.8223712307e-03
  1.8507223489e-03
  1.8791395930e-03
  1.9076231171e-03
  1.9361730759e-03
  1.9647896243e-03
  1.9934729177e-03
  2.0222231117e-03
  2.0510403623e-03
  2.0799248260e-03
  2.1088766595e-03
  2.1378960199e-03
  2.1669830649e-03
  2.1961379521e-03
  2.2253608399e-03
  2.2546518868e-03
  2.2840112519e-03
  2.3134390944e-03
  2.3429355741e-03
  2.3725008511e-03
  2.4021350859e-03
  2.4318384392e-03
  2.4616110724e-03
  2.4914531469e-03
  2.5213648247e-03
  2.5513462682e-03
  2.5813976401e-03
  2.6115191036e-03
  2.6417108220e-03
  2.6719729593e-03
  2.7023056796e-03
  2.7327091477e-03
  2.7631835285e-03
  2.7937289875e-03
  2.8243456903e-03
  2.8550338032e-03
  2.8857934928e-03
  2.9166249259e-03
  2.9475282699e-03
  2.9785036926e-03
  3.0095513620e-03
  3.0406714467e-03
  3.0718641156e-03
  3.1031295379e-03
  3.1344678833e-03
  3.1658793220e-03
  3.1973640244e-03
  3.2289221613e-03
  3.2605539042e-03
  3.2922594246e-03
  3.3240388946e-03
  3.3558924867e-03
  3.3878203738e-03
  3.4198227291e-03
  3.4518997265e-03
  3.4840515398e-03
  3.5162783438e-03
  3.5485803131e-03
  3.5809576233e-03
  3.6134104500e-03
  3.6459389693e-03
  3.6785433577e-03
  3.7112237923e-03
  3.7439804504e-03
  3.7768135098e-03
  3.8097231487e-03
  3.8427095457e-03
  3.8757728798e-03
  3.9089133304e-03
  3.9421310775e-03
  3.9754263014e-03
  4.0087991827e-03
  4.0422499025e-03
  4.0757786424e-03
  4.1093855844e-03
  4.1430709109e-03
  4.1768348047e-03
  4.2106774491e-03
  4.2445990276e-03
  4.2785997246e-03
  4.3126797243e-03
  4.3468392120e-03
  4.3810783728e-03
  4.4153973927e-03
  4.4497964579e-03
  4.4842757552e-03
  4.5188354716e-03
  4.5534757947e-03
  4.5881969125e-03
  4.6229990136e-03
  4.6578822866e-03
  4.6928469211e-03
  4.7278931067e-03
  4.7630210336e-03
  4.7982308926e-03
  4.8335228747e-03
  4.8688971714e-03
  4.9043539747e-03
  4.9398934772e-03
  4.9755158716e-03
  5.0112213513e-03
  5.0470101100e-03
  5.0828823421e-03
  5.1188382423e-03
  5.1548780056e-03
  5.1910018276e-03
  5.2272099045e-03
  5.2635024327e-03
  5.2998796092e-03
  5.3363416315e-03
  5.3728886974e-03
  5.4095210053e-03
  5.4462387541e-03
  5.4830421429e-03
  5.5199313715e-03
  5.5569066402e-03
  5.5939681496e-03
  5.6311161009e-03
  5.6683506957e-03
  5.7056721361e-03
  5.7430806246e-03
  5.7805763643e-03
  5.8181595586e-03
  5.8558304116e-03
  5.8935891277e-03
  5.9314359119e-03
  5.9693709694e-03
  6.0073945063e-03
  6.0455067289e-03
  6.0837078441e-03
  6.1219980591e-03
  6.1603775819e-03
  6.1988466206e-03
  6.2374053841e-03
  6.2760540816e-03
  6.3147929230e-03
  6.3536221185e-03
  6.3925418787e-03
  6.4315524150e-03
  6.4706539391e-03
  6.5098466631e-03
  6.5491307999e-03
  6.5885065625e-03
  6.6279741648e-03
  6.6675338209e-03
  6.7071857455e-03
  6.7469301539e-03
  6.7867672617e-03
  6.8266972851e-03
  6.8667204409e-03
  6.9068369463e-03
  6.9470470190e-03
  6.9873508773e-03
  7.0277487399e-03
  7.0682408260e-03
  7.1088273554e-03
  7.1495085485e-03
  7.1902846259e-03
  7.2311558090e-03
  7.2721223196e-03
  7.3131843801e-03
  7.3543422133e-03
  7.3955960426e-03
  7.4369460919e-03
  7.4783925857e-03
  7.5199357488e-03
  7.5615758067e-03
  7.6033129855e-03
  7.6451475116e-03
  7.6870796122e-03
  7.7291095147e-03
  7.7712374473e-03
  7.8134636387e-03
  7.8557883180e-03
  7.8982117150e-03
  7.9407340598e-03
  7.9833555833e-03
  8.0260765168e-03
  8.0688970922e-03
  8.1118175418e-03
  8.1548380986e-03
  8.1979589961e-03
  8.2411804684e-03
  8.2845027499e-03
  8.3279260759e-03
  8.3714506820e-03
  8.4150768045e-03
  8.4588046800e-03
  8.5026345460e-03
  8.5465666403e-03
  8.5906012014e-03
  8.6347384682e-03
  8.6789786803e-03
  8.7233220778e-03
  8.7677689014e-03
  8.8123193923e-03
  8.8569737923e-03
  8.9017323438e-03
  8.9465952896e-03
  8.9915628733e-03
  9.0366353389e-03
  9.0818129310e-03
  9.1270958949e-03
  9.1724844763e-03
  9.2179789216e-03
  9.2635794776e-03
  9.3092863919e-03
  9.3550999125e-03
  9.4010202881e-03
  9.4470477679e-03
  9.4931826017e-03
  9.5394250399e-03
  9.5857753335e-03
  9.6322337340e-03
  9.6788004937e-03
  9.7254758651e-03
  9.7722601017e-03
  9.8191534573e-03
  9.8661561865e-03
  9.9132685444e-03
  9.9604907867e-03
  1.0007823170e-02
  1.0055265950e-02
  1.0102819386e-02
  1.0150483734e-02
  1.0198259255e-02
  1.0246146206e-02
  1.0294144849e-02
  1.0342255443e-02
  1.0390478250e-02
  1.0438813531e-02
  1.0487261549e-02
  1.0535822566e-02
  1.0584496847e-02
  1.0633284655e-02
  1.0682186256e-02
  1.0731201913e-02
  1.0780331895e-02
  1.0829576467e-02
  1.0878935896e-02
  1.0928410450e-02
  1.0978000399e-02
  1.1027706011e-02
  1.1077527555e-02
  1.1127465303e-02
  1.1177519525e-02
  1.1227690493e-02
  1.1277978479e-02
  1.1328383757e-02
  1.1378906599e-02
  1.1429547280e-02
  1.1480306075e-02
  1.1531183259e-02
  1.1582179109e-02
  1.1633293900e-02
  1.1684527912e-02
  1.1735881421e-02
  1.1787354706e-02
  1.1838948047e-02
  1.1890661724e-02
  1.1942496018e-02
  1.1994451209e-02
  1.2046527580e-02
  1.2098725413e-02
  1.2151044992e-02
  1.2203486600e-02
  1.2256050523e-02
  1.2308737046e-02
  1.2361546453e-02
  1.2414479033e-02
  1.2467535073e-02
  1.2520714859e-02
  1.2574018682e-02
  1.2627446830e-02
  1.2680999593e-02
  1.2734677263e-02
  1.2788480129e-02
  1.2842408484e-02
  1.2896462622e-02
  1.2950642835e-02
  1.3004949417e-02
  1.3059382663e-02
  1.3113942869e-02
  1.3168630331e-02
  1.3223445345e-02
  1.3278388209e-02
  1.3333459221e-02
  1.3388658680e-02
  1.3443986886e-02
  1.3499444138e-02
  1.3555030739e-02
  1.3610746989e-02
  1.3666593191e-02
  1.3722569649e-02
  1.3778676665e-02
  1.3834914544e-02
  1.3891283593e-02
  1.3947784116e-02
  1.4004416420e-02
  1.4061180812e-02
  1.4118077602e-02
  1.4175107096e-02
  1.4232269606e-02
  1.4289565441e-02
  1.4346994912e-02
  1.4404558332e-02
  1.4462256011e-02
  1.4520088264e-02
  1.4578055404e-02
  1.4636157746e-02
  1.4694395606e-02
  1.4752769299e-02
  1.4811279142e-02
  1.4869925453e-02
  1.4928708550e-02
  1.4987628752e-02
  1.5046686378e-02
  1.5105881751e-02
  1.5165215189e-02
  1.5224687017e-02
  1.5284297556e-02
  1.5344047130e-02
  1.5403936063e-02
  1.5463964681e-02
  1.5524133309e-02
  1.5584442273e-02
  1.5644891901e-02
  1.5705482522e-02
  1.5766214463e-02
  1.5827088055e-02
  1.5888103628e-02
  1.5949261513e-02
  1.6010562042e-02
  1.6072005548e-02
  1.6133592363e-02
  1.6195322824e-02
  1.6257197264e-02
  1.6319216019e-02
  1.6381379426e-02
  1.6443687822e-02
  1.6506141546e-02
  1.6568740936e-02
  1.6631486332e-02
  1.6694378075e-02
  1.6757416506e-02
  1.6820601967e-02
  1.6883934801e-02
  1.6947415353e-02
  1.7011043965e-02
  1.7074820984e-02
  1.7138746756e-02
  1.7202821628e-02
  1.7267045948e-02
  1.7331420063e-02
  1.7395944324e-02
  1.7460619081e-02
  1.7525444685e-02
  1.7590421487e-02
  1.7655549840e-02
  1.7720830098e-02
  1.7786262615e-02
  1.7851847746e-02
  1.7917585847e-02
  1.7983477275e-02
  1.8049522388e-02
  1.8115721543e-02
  1.8182075101e-02
  1.8248583421e-02
  1.8315246864e-02
  1.8382065792e-02
  1.8449040568e-02
  1.8516171556e-02
  1.8583459119e-02
  1.8650903623e-02
  1.8718505433e-02
  1.8786264918e-02
  1.8854182444e-02
  1.8922258380e-02
  1.8990493096e-02
  1.9058886961e-02
  1.9127440348e-02
  1.9196153628e-02
  1.9265027174e-02
  1.9334061360e-02
  1.9403256561e-02
  1.9472613152e-02
  1.9542131509e-02
  1.9611812010e-02
  1.9681655034e-02
  1.9751660958e-02
  1.9821830164e-02
  1.9892163031e-02
  1.9962659942e-02
  2.0033321280e-02
  2.0104147427e-02
  2.0175138768e-02
  2.0246295689e-02
  2.0317618575e-02
  2.0389107814e-02
  2.0460763794e-02
  2.0532586904e-02
  2.0604577533e-02
  2.0676736072e-02
  2.0749062913e-02
  2.0821558449e-02
  2.0894223072e-02
  2.0967057177e-02
  2.1040061160e-02
  2.1113235417e-02
  2.1186580344e-02
  2.1260096341e-02
  2.1333783805e-02
  2.1407643138e-02
  2.1481674739e-02
  2.1555879010e-02
  2.1630256355e-02
  2.1704807177e-02
  2.1779531880e-02
  2.1854430871e-02
  2.1929504555e-02
  2.2004753340e-02
  2.2080177634e-02
  2.2155777848e-02
  2.2231554390e-02
  2.2307507673e-02
  2.2383638109e-02
  2.2459946111e-02
  2.2536432092e-02
  2.2613096469e-02
  2.2689939656e-02
  2.2766962072e-02
  2.2844164135e-02
  2.2921546262e-02
  2.2999108875e-02
  2.3076852394e-02
  2.3154777241e-02
  2.3232883839e-02
  2.3311172613e-02
  2.3389643986e-02
  2.3468298385e-02
  2.3547136237e-02
  2.3626157969e-02
  2.3705364011e-02
  2.3784754792e-02
  2.3864330743e-02
  2.3944092297e-02
  2.4024039885e-02
  2.4104173943e-02
  2.4184494904e-02
  2.4265003205e-02
  2.4345699282e-02
  2.4426583575e-02
  2.4507656521e-02
  2.4588918561e-02
  2.4670370135e-02
  2.4752011686e-02
  2.4833843658e-02
  2.4915866493e-02
  2.4998080637e-02
  2.5080486537e-02
  2.5163084639e-02
  2.5245875393e-02
  2.5328859246e-02
  2.5412036651e-02
  2.5495408057e-02
  2.5578973918e-02
  2.5662734688e-02
  2.5746690820e-02
  2.5830842770e-02
  2.5915190995e-02
  2.5999735954e-02
  2.6084478104e-02
  2.6169417906e-02
  2.6254555820e-02
  2.6339892310e-02
  2.6425427837e-02
  2.6511162866e-02
  2.6597097863e-02
  2.6683233294e-02
  2.6769569626e-02
  2.6856107329e-02
  2.6942846870e-02
  2.7029788723e-02
  2.7116933357e-02
  2.7204281247e-02
  2.7291832866e-02
  2.7379588689e-02
  2.7467549193e-02
  2.7555714856e-02
  2.7644086155e-02
  2.7732663570e-02
  2.7821447582e-02
  2.7910438674e-02
  2.7999637327e-02
  2.8089044026e-02
  2.8178659256e-02
  2.8268483504e-02
  2.8358517258e-02
  2.8448761005e-02
  2.8539215235e-02
  2.8629880440e-02
  2.8720757112e-02
  2.8811845743e-02
  2.8903146829e-02
  2.8994660864e-02
  2.9086388346e-02
  2.9178329771e-02
  2.9270485640e-02
  2.9362856453e-02
  2.9455442710e-02
  2.9548244914e-02
  2.9641263570e-02
  2.9734499181e-02
  2.9827952253e-02
  2.9921623295e-02
  3.0015512814e-02
  3.0109621320e-02
  3.0203949324e-02
  3.0298497337e-02
  3.0393265873e-02
  3.0488255447e-02
  3.0583466573e-02
  3.0678899768e-02
  3.0774555551e-02
  3.0870434440e-02
  3.0966536956e-02
  3.1062863621e-02
  3.1159414957e-02
  3.1256191489e-02
  3.1353193741e-02
  3.1450422240e-02
  3.1547877513e-02
  3.1645560091e-02
  3.1743470502e-02
  3.1841609278e-02
  3.1939976952e-02
  3.2038574058e-02
  3.2137401131e-02
  3.2236458707e-02
  3.2335747324e-02
  3.2435267521e-02
  3.2535019837e-02
  3.2635004815e-02
  3.2735222997e-02
  3.2835674926e-02
  3.2936361149e-02
  3.3037282211e-02
  3.3138438660e-02
  3.3239831046e-02
  3.3341459918e-02
  3.3443325828e-02
  3.3545429329e-02
  3.3647770975e-02
  3.3750351322e-02
  3.3853170926e-02
  3.3956230346e-02
  3.4059530140e-02
  3.4163070870e-02
  3.4266853097e-02
  3.4370877384e-02
  3.4475144297e-02
  3.4579654401e-02
  3.4684408263e-02
  3.4789406451e-02
  3.4894649537e-02
  3.5000138090e-02
  3.5105872684e-02
  3.5211853892e-02
  3.5318082289e-02
  3.5424558453e-02
  3.5531282960e-02
  3.5638256391e-02
  3.5745479325e-02
  3.5852952345e-02
  3.5960676033e-02
  3.6068650976e-02
  3.6176877758e-02
  3.6285356967e-02
  3.6394089192e-02
  3.6503075022e-02
  3.6612315050e-02
  3.6721809869e-02
  3.6831560072e-02
  3.6941566255e-02
  3.7051829015e-02
  3.7162348951e-02
  3.7273126663e-02
  3.7384162752e-02
  3.7495457819e-02
  3.7607012471e-02
  3.7718827311e-02
  3.7830902947e-02
  3.7943239987e-02
  3.8055839041e-02
  3.8168700719e-02
  3.8281825635e-02
  3.8395214403e-02
  3.8508867637e-02
  3.8622785954e-02
  3.8736969974e-02
  3.8851420315e-02
  3.8966137599e-02
  3.9081122449e-02
  3.9196375488e-02
  3.9311897341e-02
  3.9427688637e-02
  3.9543750003e-02
  3.9660082070e-02
  3.9776685468e-02
  3.9893560831e-02
  4.0010708793e-02
  4.0128129989e-02
  4.0245825057e-02
  4.0363794636e-02
  4.0482039366e-02
  4.0600559889e-02
  4.0719356848e-02
  4.0838430887e-02
  4.0957782654e-02
  4.1077412796e-02
  4.1197321961e-02
  4.1317510801e-02
  4.1437979969e-02
  4.1558730118e-02
  4.1679761903e-02
  4.1801075981e-02
  4.1922673011e-02
  4.2044553653e-02
  4.2166718567e-02
  4.2289168418e-02
  4.2411903870e-02
  4.2534925588e-02
  4.2658234241e-02
  4.2781830498e-02
  4.2905715030e-02
  4.3029888508e-02
  4.3154351608e-02
  4.3279105004e-02
  4.3404149373e-02
  4.3529485395e-02
  4.3655113749e-02
  4.3781035117e-02
  4.3907250183e-02
  4.4033759631e-02
  4.4160564149e-02
  4.4287664425e-02
  4.4415061147e-02
  4.4542755009e-02
  4.4670746702e-02
  4.4799036922e-02
  4.4927626365e-02
  4.5056515728e-02
  4.5185705712e-02
  4.5315197016e-02
  4.5444990345e-02
  4.5575086403e-02
  4.5705485895e-02
  4.5836189530e-02
  4.5967198017e-02
  4.6098512066e-02
  4.6230132391e-02
  4.6362059705e-02
  4.6494294726e-02
  4.6626838170e-02
  4.6759690757e-02
  4.6892853208e-02
  4.7026326246e-02
  4.7160110595e-02
  4.7294206981e-02
  4.7428616132e-02
  4.7563338778e-02
  4.7698375649e-02
  4.7833727479e-02
  4.7969395002e-02
  4.8105378955e-02
  4.8241680075e-02
  4.8378299102e-02
  4.8515236778e-02
  4.8652493847e-02
  4.8790071052e-02
  4.8927969140e-02
  4.9066188861e-02
  4.9204730964e-02
  4.9343596202e-02
  4.9482785327e-02
  4.9622299095e-02
  4.9762138264e-02
  4.9902303592e-02
  5.0042795840e-02
  5.0183615771e-02
  5.0324764149e-02
  5.0466241740e-02
  5.0608049312e-02
  5.0750187634e-02
  5.0892657478e-02
  5.1035459617e-02
  5.1178594827e-02
  5.1322063883e-02
  5.1465867566e-02
  5.1610006654e-02
  5.1754481931e-02
  5.1899294181e-02
  5.2044444189e-02
  5.2189932744e-02
  5.2335760634e-02
  5.2481928652e-02
  5.2628437591e-02
  5.2775288246e-02
  5.2922481413e-02
  5.3070017893e-02
  5.3217898484e-02
  5.3366123991e-02
  5.3514695218e-02
  5.3663612971e-02
  5.3812878058e-02
  5.3962491289e-02
  5.4112453476e-02
  5.4262765434e-02
  5.4413427978e-02
  5.4564441925e-02
  5.4715808096e-02
  5.4867527312e-02
  5.5019600396e-02
  5.5172028174e-02
  5.5324811472e-02
  5.5477951121e-02
  5.5631447951e-02
  5.5785302796e-02
  5.5939516490e-02
  5.6094089870e-02
  5.6249023776e-02
  5.6404319048e-02
  5.6559976529e-02
  5.6715997064e-02
  5.6872381499e-02
  5.7029130684e-02
  5.7186245469e-02
  5.7343726707e-02
  5.7501575253e-02
  5.7659791962e-02
  5.7818377695e-02
  5.7977333312e-02
  5.8136659675e-02
  5.8296357649e-02
  5.8456428101e-02
  5.8616871899e-02
  5.8777689916e-02
  5.8938883022e-02
  5.9100452093e-02
  5.9262398007e-02
  5.9424721641e-02
  5.9587423877e-02
  5.9750505599e-02
  5.9913967690e-02
  6.0077811039e-02
  6.0242036534e-02
  6.0406645067e-02
  6.0571637531e-02
  6.0737014822e-02
  6.0902777837e-02
  6.1068927476e-02
  6.1235464641e-02
  6.1402390235e-02
  6.1569705165e-02
  6.1737410338e-02
  6.1905506666e-02
  6.2073995059e-02
  6.2242876433e-02
  6.2412151704e-02
  6.2581821791e-02
  6.2751887614e-02
  6.2922350098e-02
  6.3093210166e-02
  6.3264468746e-02
  6.3436126769e-02
  6.3608185164e-02
  6.3780644867e-02
  6.3953506813e-02
  6.4126771940e-02
  6.4300441189e-02
  6.4474515503e-02
  6.4648995825e-02
  6.4823883104e-02
  6.4999178288e-02
  6.5174882328e-02
  6.5350996179e-02
  6.5527520796e-02
  6.5704457137e-02
  6.5881806163e-02
