ocio/luts/DLog_to_lin.spi1d
Version 1
From 0.0000000000 1.0000000000
Length 4096
Components 1
{
  -1.5419087137e-02
  -1.5378555976e-02
  -1.5338024815e-02
  -1.5297493654e-02
  -1.5256962493e-02
  -1.5216431333e-02
  -1.5175900172e-02
  -1.5135369011e-02
  -1.5094837850e-02
  -1.5054306689e-02
  -1.5013775528e-02
  -1.4973244367e-02
  -1.4932713207e-02
  -1.4892182046e-02
  -1.4851650885e-02
  -1.4811119724e-02
  -1.4770588563e-02
  -1.4730057402e-02
  -1.4689526241e-02
  -1.4648995081e-02
  -1.4608463920e-02
  -1.4567932759e-02
  -1.4527401598e-02
  -1.4486870437e-02
  -1.4446339276e-02
  -1.4405808115e-02
  -1.4365276954e-02
  -1.4324745794e-02
  -1.4284214633e-02
  -1.4243683472e-02
  -1.4203152311e-02
  -1.4162621150e-02
  -1.4122089989e-02
  -1.4081558828e-02
  -1.4041027668e-02
  -1.4000496507e-02
  -1.3959965346e-02
  -1.3919434185e-02
  -1.3878903024e-02
  -1.3838371863e-02
  -1.3797840702e-02
  -1.3757309542e-02
  -1.3716778381e-02
  -1.3676247220e-02
  -1.3635716059e-02
  -1.3595184898e-02
  -1.3554653737e-02
  -1.3514122576e-02
  -1.3473591416e-02
  -1.3433060255e-02
  -1.3392529094e-02
  -1.3351997933e-02
  -1.3311466772e-02
  -1.3270935611e-02
  -1.3230404450e-02
  -1.3189873289e-02
  -1.3149342129e-02
  -1.3108810968e-02
  -1.3068279807e-02
  -1.3027748646e-02
  -1.2987217485e-02
  -1.2946686324e-02
  -1.2906155163e-02
  -1.2865624003e-02
  -1.2825092842e-02
  -1.2784561681e-02
  -1.2744030520e-02
  -1.2703499359e-02
  -1.2662968198e-02
  -1.2622437037e-02
  -1.2581905877e-02
  -1.2541374716e-02
  -1.2500843555e-02
  -1.2460312394e-02
  -1.2419781233e-02
  -1.2379250072e-02
  -1.2338718911e-02
  -1.2298187750e-02
  -1.2257656590e-02
  -1.2217125429e-02
  -1.2176594268e-02
  -1.2136063107e-02
  -1.2095531946e-02
  -1.2055000785e-02
  -1.2014469624e-02
  -1.1973938464e-02
  -1.1933407303e-02
  -1.1892876142e-02
  -1.1852344981e-02
  -1.1811813820e-02
  -1.1771282659e-02
  -1.1730751498e-02
  -1.1690220338e-02
  -1.1649689177e-02
  -1.1609158016e-02
  -1.1568626855e-02
  -1.1528095694e-02
  -1.1487564533e-02
  -1.1447033372e-02
  -1.1406502211e-02
  -1.1365971051e-02
  -1.1325439890e-02
  -1.1284908729e-02
  -1.1244377568e-02
  -1.1203846407e-02
  -1.1163315246e-02
  -1.1122784085e-02
  -1.1082252925e-02
  -1.1041721764e-02
  -1.1001190603e-02
  -1.0960659442e-02
  -1.0920128281e-02
  -1.0879597120e-02
  -1.0839065959e-02
  -1.0798534799e-02
  -1.0758003638e-02
  -1.0717472477e-02
  -1.0676941316e-02
  -1.0636410155e-02
  -1.0595878994e-02
  -1.0555347833e-02
  -1.0514816672e-02
  -1.0474285512e-02
  -1.0433754351e-02
  -1.0393223190e-02
  -1.0352692029e-02
  -1.0312160868e-02
  -1.0271629707e-02
  -1.0231098546e-02
  -1.0190567386e-02
  -1.0150036225e-02
  -1.0109505064e-02
  -1.0068973903e-02
  -1.0028442742e-02
  -9.9879115813e-03
  -9.9473804204e-03
  -9.9068492595e-03
  -9.8663180987e-03
  -9.8257869378e-03
  -9.7852557770e-03
  -9.7447246161e-03
  -9.7041934552e-03
  -9.6636622944e-03
  -9.6231311335e-03
  -9.5825999726e-03
  -9.5420688118e-03
  -9.5015376509e-03
  -9.4610064901e-03
  -9.4204753292e-03
  -9.3799441683e-03
  -9.3394130075e-03
  -9.2988818466e-03
  -9.2583506857e-03
  -9.2178195249e-03
  -9.1772883640e-03
  -9.1367572031e-03
  -9.0962260423e-03
  -9.0556948814e-03
  -9.0151637206e-03
  -8.9746325597e-03
  -8.9341013988e-03
  -8.8935702380e-03
  -8.8530390771e-03
  -8.8125079162e-03
  -8.7719767554e-03
  -8.7314455945e-03
  -8.6909144337e-03
  -8.6503832728e-03
  -8.6098521119e-03
  -8.5693209511e-03
  -8.5287897902e-03
  -8.4882586293e-03
  -8.4477274685e-03
  -8.4071963076e-03
  -8.3666651467e-03
  -8.3261339859e-03
  -8.2856028250e-03
  -8.2450716642e-03
  -8.2045405033e-03
  -8.1640093424e-03
  -8.1234781816e-03
  -8.0829470207e-03
  -8.0424158598e-03
  -8.0018846990e-03
  -7.9613535381e-03
  -7.9208223773e-03
  -7.8802912164e-03
  -7.8397600555e-03
  -7.7992288947e-03
  -7.7586977338e-03
  -7.7181665729e-03
  -7.6776354121e-03
  -7.6371042512e-03
  -7.5965730903e-03
  -7.5560419295e-03
  -7.5155107686e-03
  -7.4749796078e-03
  -7.4344484469e-03
  -7.3939172860e-03
  -7.3533861252e-03
  -7.3128549643e-03
  -7.2723238034e-03
  -7.2317926426e-03
  -7.1912614817e-03
  -7.1507303209e-03
  -7.1101991600e-03
  -7.0696679991e-03
  -7.0291368383e-03
  -6.9886056774e-03
  -6.9480745165e-03
  -6.9075433557e-03
  -6.8670121948e-03
  -6.8264810339e-03
  -6.7859498731e-03
  -6.7454187122e-03
  -6.7048875514e-03
  -6.6643563905e-03
  -6.6238252296e-03
  -6.5832940688e-03
  -6.5427629079e-03
  -6.5022317470e-03
  -6.4617005862e-03
  -6.4211694253e-03
  -6.3806382645e-03
  -6.3401071036e-03
  -6.2995759427e-03
  -6.2590447819e-03
  -6.2185136210e-03
  -6.1779824601e-03
  -6.1374512993e-03
  -6.0969201384e-03
  -6.0563889776e-03
  -6.0158578167e-03
  -5.9753266558e-03
  -5.9347954950e-03
  -5.8942643341e-03
  -5.8537331732e-03
  -5.8132020124e-03
  -5.7726708515e-03
  -5.7321396906e-03
  -5.6916085298e-03
  -5.6510773689e-03
  -5.6105462081e-03
  -5.5700150472e-03
  -5.5294838863e-03
  -5.4889527255e-03
  -5.4484215646e-03
  -5.4078904037e-03
  -5.3673592429e-03
  -5.3268280820e-03
  -5.2862969212e-03
  -5.2457657603e-03
  -5.2052345994e-03
  -5.1647034386e-03
  -5.1241722777e-03
  -5.0836411168e-03
  -5.0431099560e-03
  -5.0025787951e-03
  -4.9620476342e-03
  -4.9215164734e-03
  -4.8809853125e-03
  -4.8404541517e-03
  -4.7999229908e-03
  -4.7593918299e-03
  -4.7188606691e-03
  -4.6783295082e-03
  -4.6377983473e-03
  -4.5972671865e-03
  -4.5567360256e-03
  -4.5162048648e-03
  -4.4756737039e-03
  -4.4351425430e-03
  -4.3946113822e-03
  -4.3540802213e-03
  -4.3135490604e-03
  -4.2730178996e-03
  -4.2324867387e-03
  -4.1919555778e-03
  -4.1514244170e-03
  -4.1108932561e-03
  -4.0703620953e-03
  -4.0298309344e-03
  -3.9892997735e-03
  -3.9487686127e-03
  -3.9082374518e-03
  -3.8677062909e-03
  -3.8271751301e-03
  -3.7866439692e-03
  -3.7461128084e-03
  -3.7055816475e-03
  -3.6650504866e-03
  -3.6245193258e-03
  -3.5839881649e-03
  -3.5434570040e-03
  -3.5029258432e-03
  -3.4623946823e-03
  -3.4218635214e-03
  -3.3813323606e-03
  -3.3408011997e-03
  -3.3002700389e-03
  -3.2597388780e-03
  -3.2192077171e-03
  -3.1786765563e-03
  -3.1381453954e-03
  -3.0976142345e-03
  -3.0570830737e-03
  -3.0165519128e-03
  -2.9760207520e-03
  -2.9354895911e-03
  -2.8949584302e-03
  -2.8544272694e-03
  -2.8138961085e-03
  -2.7733649476e-03
  -2.7328337868e-03
  -2.6923026259e-03
  -2.6517714650e-03
  -2.6112403042e-03
  -2.5707091433e-03
  -2.5301779825e-03
  -2.4896468216e-03
  -2.4491156607e-03
  -2.4085844999e-03
  -2.3680533390e-03
  -2.3275221781e-03
  -2.2869910173e-03
  -2.2464598564e-03
  -2.2059286956e-03
  -2.1653975347e-03
  -2.1248663738e-03
  -2.0843352130e-03
  -2.0438040521e-03
  -2.0032728912e-03
  -1.9627417304e-03
  -1.9222105695e-03
  -1.8816794087e-03
  -1.8411482478e-03
  -1.8006170869e-03
  -1.7600859261e-03
  -1.7195547652e-03
  -1.6790236043e-03
  -1.6384924435e-03
  -1.5979612826e-03
  -1.5574301217e-03
  -1.5168989609e-03
  -1.4763678000e-03
  -1.4358366392e-03
  -1.3953054783e-03
  -1.3547743174e-03
  -1.3142431566e-03
  -1.2737119957e-03
  -1.2331808348e-03
  -1.1926496740e-03
  -1.1521185131e-03
  -1.1115873523e-03
  -1.0710561914e-03
  -1.0305250305e-03
  -9.8999386966e-04
  -9.4946270880e-04
  -9.0893154794e-04
  -8.6840038707e-04
  -8.2786922621e-04
  -7.8733806535e-04
  -7.4680690448e-04
  -7.0627574362e-04
  -6.6574458276e-04
  -6.2521342189e-04
  -5.8468226103e-04
  -5.4415110017e-04
  -5.0361993930e-04
  -4.6308877844e-04
  -4.2255761758e-04
  -3.8202645672e-04
  -3.4149529585e-04
  -3.0096413499e-04
  -2.6043297413e-04
  -2.1990181326e-04
  -1.7937065240e-04
  -1.3883949154e-04
  -9.8308330673e-05
  -5.7777169810e-05
  -1.7246008947e-05
  2.3285151916e-05
  6.3816312779e-05
  1.0434747364e-04
  1.4487863451e-04
  1.8540979537e-04
  2.2594095623e-04
  2.6647211709e-04
  3.0700327796e-04
  3.4753443882e-04
  3.8806559968e-04
  4.2859676055e-04
  4.6912792141e-04
  5.0965908227e-04
  5.5019024314e-04
  5.9072140400e-04
  6.3125256486e-04
  6.7178372573e-04
  7.1231488659e-04
  7.5284604745e-04
  7.9337720831e-04
  8.3390836918e-04
  8.7443953004e-04
  9.1497069090e-04
  9.5550185177e-04
  9.9603301263e-04
  1.0365641735e-03
  1.0770953344e-03
  1.1176264952e-03
  1.1581576561e-03
  1.1986888169e-03
  1.2392199778e-03
  1.2797511387e-03
  1.3202822995e-03
  1.3608134604e-03
  1.4013446213e-03
  1.4418757821e-03
  1.4824069430e-03
  1.5229381039e-03
  1.5634692647e-03
  1.6040004256e-03
  1.6445315864e-03
  1.6850627473e-03
  1.7255939082e-03
  1.7661250690e-03
  1.8066562299e-03
  1.8471873908e-03
  1.8877185516e-03
  1.9282497125e-03
  1.9687808733e-03
  2.0093120342e-03
  2.0498431951e-03
  2.0903743559e-03
  2.1309055168e-03
  2.1714366777e-03
  2.2119678385e-03
  2.2524989994e-03
  2.2930301603e-03
  2.3335613211e-03
  2.3740924820e-03
  2.4146236428e-03
  2.4551548037e-03
  2.4956859646e-03
  2.5362171254e-03
  2.5767482863e-03
  2.6172794472e-03
  2.6578106080e-03
  2.6983417689e-03
  2.7388729297e-03
  2.7794040906e-03
  2.8199352515e-03
  2.8604664123e-03
  2.9009975732e-03
  2.9415287341e-03
  2.9820598949e-03
  3.0225910558e-03
  3.0631222166e-03
  3.1036533775e-03
  3.1441845384e-03
  3.1847156992e-03
  3.2252468601e-03
  3.2657780210e-03
  3.3063091818e-03
  3.3468403427e-03
  3.3873715036e-03
  3.4279026644e-03
  3.4684338253e-03
  3.5089649861e-03
  3.5494961470e-03
  3.5900273079e-03
  3.6305584687e-03
  3.6710896296e-03
  3.7116207905e-03
  3.7521519513e-03
  3.7926831122e-03
  3.8332142730e-03
  3.8737454339e-03
  3.9142765948e-03
  3.9548077556e-03
  3.9953389165e-03
  4.0358700774e-03
  4.0764012382e-03
  4.1169323991e-03
  4.1574635600e-03
  4.1979947208e-03
  4.2385258817e-03
  4.2790570425e-03
  4.3195882034e-03
  4.3601193643e-03
  4.4006505251e-03
  4.4411816860e-03
  4.4817128469e-03
  4.5222440077e-03
  4.5627751686e-03
  4.6033063294e-03
  4.6438374903e-03
  4.6843686512e-03
  4.7248998120e-03
  4.7654309729e-03
  4.8059621338e-03
  4.8464932946e-03
  4.8870244555e-03
  4.9275556164e-03
  4.9680867772e-03
  5.0086179381e-03
  5.0491490989e-03
  5.0896802598e-03
  5.1302114207e-03
  5.1707425815e-03
  5.2112737424e-03
  5.2518049033e-03
  5.2923360641e-03
  5.3328672250e-03
  5.3733983858e-03
  5.4139295467e-03
  5.4544607076e-03
  5.4949918684e-03
  5.5355230293e-03
  5.5760541902e-03
  5.6165853510e-03
  5.6571165119e-03
  5.6976476728e-03
  5.7381788336e-03
  5.7787099945e-03
  5.8192411553e-03
  5.8597723162e-03
  5.9003034771e-03
  5.9408346379e-03
  5.9813657988e-03
  6.0218969597e-03
  6.0624281205e-03
  6.1029592814e-03
  6.1434904422e-03
  6.1840216031e-03
  6.2245527640e-03
  6.2650839248e-03
  6.3056150857e-03
  6.3461462466e-03
  6.3866774074e-03
  6.4272085683e-03
  6.4677397292e-03
  6.5082708900e-03
  6.5488020509e-03
  6.5893332117e-03
  6.6298643726e-03
  6.6703955335e-03
  6.7109266943e-03
  6.7514578552e-03
  6.7919890161e-03
  6.8325201769e-03
  6.8730513378e-03
  6.9135824986e-03
  6.9541136595e-03
  6.9946448204e-03
  7.0351759812e-03
  7.0757071421e-03
  7.1162383030e-03
  7.1567694638e-03
  7.1973006247e-03
  7.2378317855e-03
  7.2783629464e-03
  7.3188941073e-03
  7.3594252681e-03
  7.3999564290e-03
  7.4404875899e-03
  7.4810187507e-03
  7.5215499116e-03
  7.5620810725e-03
  7.6026122333e-03
  7.6431433942e-03
  7.6836745550e-03
  7.7242057159e-03
  7.7647368768e-03
  7.8052680376e-03
  7.8460380705e-03
  7.8871908029e-03
  7.9284337908e-03
  7.9697672319e-03
  8.0111913248e-03
  8.0527062682e-03
  8.0943122613e-03
  8.1360095039e-03
  8.1777981961e-03
  8.2196785384e-03
  8.2616507318e-03
  8.3037149779e-03
  8.3458714784e-03
  8.3881204358e-03
  8.4304620527e-03
  8.4728965325e-03
  8.5154240787e-03
  8.5580448955e-03
  8.6007591875e-03
  8.6435671596e-03
  8.6864690173e-03
  8.7294649665e-03
  8.7725552137e-03
  8.8157399655e-03
  8.8590194292e-03
  8.9023938127e-03
  8.9458633239e-03
  8.9894281717e-03
  9.0330885650e-03
  9.0768447135e-03
  9.1206968271e-03
  9.1646451163e-03
  9.2086897920e-03
  9.2528310657e-03
  9.2970691491e-03
  9.3414042546e-03
  9.3858365951e-03
  9.4303663836e-03
  9.4749938341e-03
  9.5197191605e-03
  9.5645425777e-03
  9.6094643008e-03
  9.6544845453e-03
  9.6996035273e-03
  9.7448214633e-03
  9.7901385705e-03
  9.8355550663e-03
  9.8810711686e-03
  9.9266870960e-03
  9.9724030673e-03
  1.0018219302e-02
  1.0064136020e-02
  1.0110153442e-02
  1.0156271788e-02
  1.0202491280e-02
  1.0248812139e-02
  1.0295234589e-02
  1.0341758852e-02
  1.0388385150e-02
  1.0435113709e-02
  1.0481944751e-02
  1.0528878503e-02
  1.0575915189e-02
  1.0623055035e-02
  1.0670298266e-02
  1.0717645111e-02
  1.0765095796e-02
  1.0812650549e-02
  1.0860309598e-02
  1.0908073172e-02
  1.0955941500e-02
  1.1003914812e-02
  1.1051993339e-02
  1.1100177310e-02
  1.1148466957e-02
  1.1196862512e-02
  1.1245364207e-02
  1.1293972275e-02
  1.1342686950e-02
  1.1391508465e-02
  1.1440437054e-02
  1.1489472952e-02
  1.1538616395e-02
  1.1587867618e-02
  1.1637226858e-02
  1.1686694352e-02
  1.1736270336e-02
  1.1785955050e-02
  1.1835748732e-02
  1.1885651620e-02
  1.1935663954e-02
  1.1985785974e-02
  1.2036017921e-02
  1.2086360036e-02
  1.2136812560e-02
  1.2187375735e-02
  1.2238049805e-02
  1.2288835012e-02
  1.2339731600e-02
  1.2390739813e-02
  1.2441859897e-02
  1.2493092096e-02
  1.2544436657e-02
  1.2595893825e-02
  1.2647463849e-02
  1.2699146975e-02
  1.2750943451e-02
  1.2802853526e-02
  1.2854877450e-02
  1.2907015471e-02
  1.2959267840e-02
  1.3011634809e-02
  1.3064116627e-02
  1.3116713548e-02
  1.3169425823e-02
  1.3222253705e-02
  1.3275197449e-02
  1.3328257308e-02
  1.3381433537e-02
  1.3434726391e-02
  1.3488136125e-02
  1.3541662997e-02
  1.3595307263e-02
  1.3649069181e-02
  1.3702949008e-02
  1.3756947003e-02
  1.3811063426e-02
  1.3865298535e-02
  1.3919652592e-02
  1.3974125858e-02
  1.4028718593e-02
  1.4083431060e-02
  1.4138263521e-02
  1.4193216239e-02
  1.4248289479e-02
  1.4303483505e-02
  1.4358798580e-02
  1.4414234972e-02
  1.4469792946e-02
  1.4525472768e-02
  1.4581274707e-02
  1.4637199029e-02
  1.4693246003e-02
  1.4749415898e-02
  1.4805708985e-02
  1.4862125532e-02
  1.4918665810e-02
  1.4975330092e-02
  1.5032118648e-02
  1.5089031753e-02
  1.5146069678e-02
  1.5203232697e-02
  1.5260521085e-02
  1.5317935117e-02
  1.5375475069e-02
  1.5433141215e-02
  1.5490933834e-02
  1.5548853203e-02
  1.5606899600e-02
  1.5665073302e-02
  1.5723374590e-02
  1.5781803743e-02
  1.5840361042e-02
  1.5899046768e-02
  1.5957861202e-02
  1.6016804627e-02
  1.6075877325e-02
  1.6135079581e-02
  1.6194411677e-02
  1.6253873900e-02
  1.6313466534e-02
  1.6373189865e-02
  1.6433044181e-02
  1.6493029767e-02
  1.6553146913e-02
  1.6613395907e-02
  1.6673777038e-02
  1.6734290595e-02
  1.6794936870e-02
  1.6855716152e-02
  1.6916628735e-02
  1.6977674910e-02
  1.7038854970e-02
  1.7100169210e-02
  1.7161617922e-02
  1.7223201402e-02
  1.7284919947e-02
  1.7346773851e-02
  1.7408763412e-02
  1.7470888927e-02
  1.7533150694e-02
  1.7595549013e-02
  1.7658084183e-02
  1.7720756504e-02
  1.7783566276e-02
  1.7846513801e-02
  1.7909599382e-02
  1.7972823321e-02
  1.8036185921e-02
  1.8099687487e-02
  1.8163328324e-02
  1.8227108736e-02
  1.8291029030e-02
  1.8355089513e-02
  1.8419290492e-02
  1.8483632275e-02
  1.8548115172e-02
  1.8612739491e-02
  1.8677505543e-02
  1.8742413639e-02
  1.8807464090e-02
  1.8872657208e-02
  1.8937993306e-02
  1.9003472699e-02
  1.9069095699e-02
  1.9134862623e-02
  1.9200773785e-02
  1.9266829502e-02
  1.9333030092e-02
  1.9399375871e-02
  1.9465867159e-02
  1.9532504274e-02
  1.9599287536e-02
  1.9666217266e-02
  1.9733293785e-02
  1.9800517414e-02
  1.9867888478e-02
  1.9935407298e-02
  2.0003074199e-02
  2.0070889506e-02
  2.0138853544e-02
  2.0206966640e-02
  2.0275229120e-02
  2.0343641312e-02
  2.0412203544e-02
  2.0480916145e-02
  2.0549779446e-02
  2.0618793776e-02
  2.0687959467e-02
  2.0757276851e-02
  2.0826746261e-02
  2.0896368029e-02
  2.0966142491e-02
  2.1036069980e-02
  2.1106150833e-02
  2.1176385387e-02
  2.1246773977e-02
  2.1317316942e-02
  2.1388014620e-02
  2.1458867352e-02
  2.1529875476e-02
  2.1601039333e-02
  2.1672359266e-02
  2.1743835617e-02
  2.1815468728e-02
  2.1887258943e-02
  2.1959206607e-02
  2.2031312066e-02
  2.2103575664e-02
  2.2175997750e-02
  2.2248578671e-02
  2.2321318774e-02
  2.2394218410e-02
  2.2467277928e-02
  2.2540497678e-02
  2.2613878013e-02
  2.2687419284e-02
  2.2761121844e-02
  2.2834986047e-02
  2.2909012248e-02
  2.2983200802e-02
  2.3057552064e-02
  2.3132066392e-02
  2.3206744144e-02
  2.3281585677e-02
  2.3356591352e-02
  2.3431761527e-02
  2.3507096564e-02
  2.3582596825e-02
  2.3658262671e-02
  2.3734094466e-02
  2.3810092574e-02
  2.3886257359e-02
  2.3962589188e-02
  2.4039088426e-02
  2.4115755440e-02
  2.4192590600e-02
  2.4269594272e-02
  2.4346766828e-02
  2.4424108637e-02
  2.4501620070e-02
  2.4579301500e-02
  2.4657153300e-02
  2.4735175842e-02
  2.4813369502e-02
  2.4891734655e-02
  2.4970271676e-02
  2.5048980944e-02
  2.5127862835e-02
  2.5206917729e-02
  2.5286146004e-02
  2.5365548041e-02
  2.5445124221e-02
  2.5524874926e-02
  2.5604800538e-02
  2.5684901442e-02
  2.5765178022e-02
  2.5845630662e-02
  2.5926259750e-02
  2.6007065672e-02
  2.6088048816e-02
  2.6169209571e-02
  2.6250548326e-02
  2.6332065471e-02
  2.6413761398e-02
  2.6495636499e-02
  2.6577691167e-02
  2.6659925796e-02
  2.6742340780e-02
  2.6824936515e-02
  2.6907713397e-02
  2.6990671824e-02
  2.7073812194e-02
  2.7157134905e-02
  2.7240640359e-02
  2.7324328955e-02
  2.7408201095e-02
  2.7492257182e-02
  2.7576497619e-02
  2.7660922810e-02
  2.7745533161e-02
  2.7830329078e-02
  2.7915310968e-02
  2.8000479238e-02
  2.8085834298e-02
  2.8171376556e-02
  2.8257106425e-02
  2.8343024314e-02
  2.8429130637e-02
  2.8515425807e-02
  2.8601910237e-02
  2.8688584344e-02
  2.8775448542e-02
  2.8862503249e-02
  2.8949748883e-02
  2.9037185862e-02
  2.9124814607e-02
  2.9212635537e-02
  2.9300649074e-02
  2.9388855641e-02
  2.9477255661e-02
  2.9565849558e-02
  2.9654637757e-02
  2.9743620685e-02
  2.9832798768e-02
  2.9922172436e-02
  3.0011742115e-02
  3.0101508238e-02
  3.0191471233e-02
  3.0281631534e-02
  3.0371989572e-02
  3.0462545782e-02
  3.0553300598e-02
  3.0644254456e-02
  3.0735407792e-02
  3.0826761043e-02
  3.0918314649e-02
  3.1010069048e-02
  3.1102024682e-02
  3.1194181990e-02
  3.1286541417e-02
  3.1379103404e-02
  3.1471868396e-02
  3.1564836839e-02
  3.1658009178e-02
  3.1751385861e-02
  3.1844967336e-02
  3.1938754052e-02
  3.2032746459e-02
  3.2126945009e-02
  3.2221350153e-02
  3.2315962344e-02
  3.2410782037e-02
  3.2505809687e-02
  3.2601045749e-02
  3.2696490682e-02
  3.2792144942e-02
  3.2888008990e-02
  3.2984083284e-02
  3.3080368287e-02
  3.3176864460e-02
  3.3273572267e-02
  3.3370492172e-02
  3.3467624639e-02
  3.3564970135e-02
  3.3662529128e-02
  3.3760302085e-02
  3.3858289476e-02
  3.3956491770e-02
  3.4054909441e-02
  3.4153542959e-02
  3.4252392798e-02
  3.4351459432e-02
  3.4450743338e-02
  3.4550244991e-02
  3.4649964869e-02
  3.4749903451e-02
  3.4850061216e-02
  3.4950438645e-02
  3.5051036220e-02
  3.5151854424e-02
  3.5252893740e-02
  3.5354154654e-02
  3.5455637651e-02
  3.5557343219e-02
  3.5659271845e-02
  3.5761424019e-02
  3.5863800232e-02
  3.5966400974e-02
  3.6069226738e-02
  3.6172278017e-02
  3.6275555306e-02
  3.6379059101e-02
  3.6482789899e-02
  3.6586748197e-02
  3.6690934494e-02
  3.6795349291e-02
  3.6899993088e-02
  3.7004866388e-02
  3.7109969694e-02
  3.7215303510e-02
  3.7320868343e-02
  3.7426664698e-02
  3.7532693084e-02
  3.7638954009e-02
  3.7745447983e-02
  3.7852175519e-02
  3.7959137126e-02
  3.8066333320e-02
  3.8173764615e-02
  3.8281431525e-02
  3.8389334569e-02
  3.8497474264e-02
  3.8605851128e-02
  3.8714465683e-02
  3.8823318448e-02
  3.8932409948e-02
  3.9041740705e-02
  3.9151311244e-02
  3.9261122091e-02
  3.9371173772e-02
  3.9481466818e-02
  3.9592001755e-02
  3.9702779116e-02
  3.9813799432e-02
  3.9925063235e-02
  4.0036571059e-02
  4.0148323441e-02
  4.0260320915e-02
  4.0372564021e-02
  4.0485053295e-02
  4.0597789279e-02
  4.0710772514e-02
  4.0824003541e-02
  4.0937482904e-02
  4.1051211147e-02
  4.1165188818e-02
  4.1279416462e-02
  4.1393894628e-02
  4.1508623865e-02
  4.1623604724e-02
  4.1738837756e-02
  4.1854323516e-02
  4.1970062557e-02
  4.2086055434e-02
  4.2202302705e-02
  4.2318804926e-02
  4.2435562659e-02
  4.2552576462e-02
  4.2669846897e-02
  4.2787374528e-02
  4.2905159918e-02
  4.3023203633e-02
  4.3141506238e-02
  4.3260068303e-02
  4.3378890396e-02
  4.3497973087e-02
  4.3617316948e-02
  4.3736922551e-02
  4.3856790471e-02
  4.3976921284e-02
  4.4097315564e-02
  4.4217973891e-02
  4.4338896844e-02
  4.4460085003e-02
  4.4581538948e-02
  4.4703259265e-02
  4.4825246536e-02
  4.4947501347e-02
  4.5070024285e-02
  4.5192815938e-02
  4.5315876895e-02
  4.5439207747e-02
  4.5562809086e-02
  4.5686681505e-02
  4.5810825598e-02
  4.5935241962e-02
  4.6059931194e-02
  4.6184893891e-02
  4.6310130654e-02
  4.6435642084e-02
  4.6561428784e-02
  4.6687491356e-02
  4.6813830406e-02
  4.6940446540e-02
  4.7067340367e-02
  4.7194512494e-02
  4.7321963533e-02
  4.7449694096e-02
  4.7577704794e-02
  4.7705996243e-02
  4.7834569058e-02
  4.7963423857e-02
  4.8092561257e-02
  4.8221981879e-02
  4.8351686344e-02
  4.8481675274e-02
  4.8611949293e-02
  4.8742509027e-02
  4.8873355102e-02
  4.9004488146e-02
  4.9135908788e-02
  4.9267617659e-02
  4.9399615392e-02
  4.9531902620e-02
  4.9664479977e-02
  4.9797348101e-02
  4.9930507628e-02
  5.0063959198e-02
  5.0197703452e-02
  5.0331741031e-02
  5.0466072578e-02
  5.0600698739e-02
  5.0735620159e-02
  5.0870837486e-02
  5.1006351370e-02
  5.1142162459e-02
  5.1278271407e-02
  5.1414678867e-02
  5.1551385492e-02
  5.1688391940e-02
  5.1825698868e-02
  5.1963306934e-02
  5.2101216800e-02
  5.2239429127e-02
  5.2377944579e-02
  5.2516763820e-02
  5.2655887517e-02
  5.2795316337e-02
  5.2935050950e-02
  5.3075092026e-02
  5.3215440237e-02
  5.3356096258e-02
  5.3497060762e-02
  5.3638334427e-02
  5.3779917930e-02
  5.3921811952e-02
  5.4064017173e-02
  5.4206534276e-02
  5.4349363944e-02
  5.4492506864e-02
  5.4635963722e-02
  5.4779735206e-02
  5.4923822008e-02
  5.5068224818e-02
  5.5212944329e-02
  5.5357981236e-02
  5.5503336236e-02
  5.5649010025e-02
  5.5795003303e-02
  5.5941316771e-02
  5.6087951130e-02
  5.6234907085e-02
  5.6382185341e-02
  5.6529786605e-02
  5.6677711585e-02
  5.6825960992e-02
  5.6974535535e-02
  5.7123435930e-02
  5.7272662890e-02
  5.7422217132e-02
  5.7572099374e-02
  5.7722310334e-02
  5.7872850734e-02
  5.8023721296e-02
  5.8174922744e-02
  5.8326455805e-02
  5.8478321205e-02
  5.8630519673e-02
  5.8783051940e-02
  5.8935918737e-02
  5.9089120800e-02
  5.9242658861e-02
  5.9396533660e-02
  5.9550745934e-02
  5.9705296423e-02
  5.9860185869e-02
  6.0015415016e-02
  6.0170984608e-02
  6.0326895393e-02
  6.0483148118e-02
  6.0639743533e-02
  6.0796682391e-02
  6.0953965443e-02
  6.1111593446e-02
  6.1269567156e-02
  6.1427887330e-02
  6.1586554729e-02
  6.1745570114e-02
  6.1904934249e-02
  6.2064647898e-02
  6.2224711828e-02
  6.2385126807e-02
  6.2545893605e-02
  6.2707012994e-02
  6.2868485746e-02
  6.3030312637e-02
  6.3192494444e-02
  6.3355031945e-02
  6.3517925920e-02
  6.3681177151e-02
  6.3844786422e-02
  6.4008754517e-02
  6.4173082223e-02
  6.4337770330e-02
  6.4502819628e-02
  6.4668230908e-02
  6.4834004966e-02
  6.5000142596e-02
  6.5166644595e-02
  6.5333511764e-02
  6.5500744902e-02
  6.5668344813e-02
  6.5836312301e-02
  6.6004648171e-02
  6.6173353233e-02
  6.6342428295e-02
  6.6511874170e-02
  6.6681691669e-02
  6.6851881610e-02
  6.7022444807e-02
  6.7193382080e-02
  6.7364694250e-02
  6.7536382138e-02
  6.7708446569e-02
  6.7880888368e-02
  6.8053708363e-02
  6.8226907384e-02
  6.8400486261e-02
  6.8574445828e-02
  6.8748786919e-02
  6.8923510373e-02
  6.9098617026e-02
  6.9274107720e-02
  6.9449983296e-02
