ocio/luts/FLog2_to_lin.spi1d
Version 1
From 0.0000000000 1.0000000000
Length 4096
Components 1
{
  -1.0553373667e-02
  -1.0525621939e-02
  -1.0497870212e-02
  -1.0470118484e-02
  -1.0442366757e-02
  -1.0414615029e-02
  -1.0386863302e-02
  -1.0359111574e-02
  -1.0331359847e-02
  -1.0303608119e-02
  -1.0275856391e-02
  -1.0248104664e-02
  -1.0220352936e-02
  -1.0192601209e-02
  -1.0164849481e-02
  -1.0137097754e-02
  -1.0109346026e-02
  -1.0081594299e-02
  -1.0053842571e-02
  -1.0026090844e-02
  -9.9983391160e-03
  -9.9705873885e-03
  -9.9428356609e-03
  -9.9150839334e-03
  -9.8873322058e-03
  -9.8595804783e-03
  -9.8318287507e-03
  -9.8040770232e-03
  -9.7763252957e-03
  -9.7485735681e-03
  -9.7208218406e-03
  -9.6930701130e-03
  -9.6653183855e-03
  -9.6375666579e-03
  -9.6098149304e-03
  -9.5820632028e-03
  -9.5543114753e-03
  -9.5265597478e-03
  -9.4988080202e-03
  -9.4710562927e-03
  -9.4433045651e-03
  -9.4155528376e-03
  -9.3878011100e-03
  -9.3600493825e-03
  -9.3322976550e-03
  -9.3045459274e-03
  -9.2767941999e-03
  -9.2490424723e-03
  -9.2212907448e-03
  -9.1935390172e-03
  -9.1657872897e-03
  -9.1380355622e-03
  -9.1102838346e-03
  -9.0825321071e-03
  -9.0547803795e-03
  -9.0270286520e-03
  -8.9992769244e-03
  -8.9715251969e-03
  -8.9437734694e-03
  -8.9160217418e-03
  -8.8882700143e-03
  -8.8605182867e-03
  -8.8327665592e-03
  -8.8050148316e-03
  -8.7772631041e-03
  -8.7495113765e-03
  -8.7217596490e-03
  -8.6940079215e-03
  -8.6662561939e-03
  -8.6385044664e-03
  -8.6107527388e-03
  -8.5830010113e-03
  -8.5552492837e-03
  -8.5274975562e-03
  -8.4997458287e-03
  -8.4719941011e-03
  -8.4442423736e-03
  -8.4164906460e-03
  -8.3887389185e-03
  -8.3609871909e-03
  -8.3332354634e-03
  -8.3054837359e-03
  -8.2777320083e-03
  -8.2499802808e-03
  -8.2222285532e-03
  -8.1944768257e-03
  -8.1667250981e-03
  -8.1389733706e-03
  -8.1112216431e-03
  -8.0834699155e-03
  -8.0557181880e-03
  -8.0279664604e-03
  -8.0002147329e-03
  -7.9724630053e-03
  -7.9447112778e-03
  -7.9169595502e-03
  -7.8892078227e-03
  -7.8614560952e-03
  -7.8337043676e-03
  -7.8059526401e-03
  -7.7782009125e-03
  -7.7504491850e-03
  -7.7226974574e-03
  -7.6949457299e-03
  -7.6671940024e-03
  -7.6394422748e-03
  -7.6116905473e-03
  -7.5839388197e-03
  -7.5561870922e-03
  -7.5284353646e-03
  -7.5006836371e-03
  -7.4729319096e-03
  -7.4451801820e-03
  -7.4174284545e-03
  -7.3896767269e-03
  -7.3619249994e-03
  -7.3341732718e-03
  -7.3064215443e-03
  -7.2786698168e-03
  -7.2509180892e-03
  -7.2231663617e-03
  -7.1954146341e-03
  -7.1676629066e-03
  -7.1399111790e-03
  -7.1121594515e-03
  -7.0844077239e-03
  -7.0566559964e-03
  -7.0289042689e-03
  -7.0011525413e-03
  -6.9734008138e-03
  -6.9456490862e-03
  -6.9178973587e-03
  -6.8901456311e-03
  -6.8623939036e-03
  -6.8346421761e-03
  -6.8068904485e-03
  -6.7791387210e-03
  -6.7513869934e-03
  -6.7236352659e-03
  -6.6958835383e-03
  -6.6681318108e-03
  -6.6403800833e-03
  -6.6126283557e-03
  -6.5848766282e-03
  -6.5571249006e-03
  -6.5293731731e-03
  -6.5016214455e-03
  -6.4738697180e-03
  -6.4461179905e-03
  -6.4183662629e-03
  -6.3906145354e-03
  -6.3628628078e-03
  -6.3351110803e-03
  -6.3073593527e-03
  -6.2796076252e-03
  -6.2518558976e-03
  -6.2241041701e-03
  -6.1963524426e-03
  -6.1686007150e-03
  -6.1408489875e-03
  -6.1130972599e-03
  -6.0853455324e-03
  -6.0575938048e-03
  -6.0298420773e-03
  -6.0020903498e-03
  -5.9743386222e-03
  -5.9465868947e-03
  -5.9188351671e-03
  -5.8910834396e-03
  -5.8633317120e-03
  -5.8355799845e-03
  -5.8078282570e-03
  -5.7800765294e-03
  -5.7523248019e-03
  -5.7245730743e-03
  -5.6968213468e-03
  -5.6690696192e-03
  -5.6413178917e-03
  -5.6135661641e-03
  -5.5858144366e-03
  -5.5580627091e-03
  -5.5303109815e-03
  -5.5025592540e-03
  -5.4748075264e-03
  -5.4470557989e-03
  -5.4193040713e-03
  -5.3915523438e-03
  -5.3638006163e-03
  -5.3360488887e-03
  -5.3082971612e-03
  -5.2805454336e-03
  -5.2527937061e-03
  -5.2250419785e-03
  -5.1972902510e-03
  -5.1695385235e-03
  -5.1417867959e-03
  -5.1140350684e-03
  -5.0862833408e-03
  -5.0585316133e-03
  -5.0307798857e-03
  -5.0030281582e-03
  -4.9752764307e-03
  -4.9475247031e-03
  -4.9197729756e-03
  -4.8920212480e-03
  -4.8642695205e-03
  -4.8365177929e-03
  -4.8087660654e-03
  -4.7810143378e-03
  -4.7532626103e-03
  -4.7255108828e-03
  -4.6977591552e-03
  -4.6700074277e-03
  -4.6422557001e-03
  -4.6145039726e-03
  -4.5867522450e-03
  -4.5590005175e-03
  -4.5312487900e-03
  -4.5034970624e-03
  -4.4757453349e-03
  -4.4479936073e-03
  -4.4202418798e-03
  -4.3924901522e-03
  -4.3647384247e-03
  -4.3369866972e-03
  -4.3092349696e-03
  -4.2814832421e-03
  -4.2537315145e-03
  -4.2259797870e-03
  -4.1982280594e-03
  -4.1704763319e-03
  -4.1427246044e-03
  -4.1149728768e-03
  -4.0872211493e-03
  -4.0594694217e-03
  -4.0317176942e-03
  -4.0039659666e-03
  -3.9762142391e-03
  -3.9484625115e-03
  -3.9207107840e-03
  -3.8929590565e-03
  -3.8652073289e-03
  -3.8374556014e-03
  -3.8097038738e-03
  -3.7819521463e-03
  -3.7542004187e-03
  -3.7264486912e-03
  -3.6986969637e-03
  -3.6709452361e-03
  -3.6431935086e-03
  -3.6154417810e-03
  -3.5876900535e-03
  -3.5599383259e-03
  -3.5321865984e-03
  -3.5044348709e-03
  -3.4766831433e-03
  -3.4489314158e-03
  -3.4211796882e-03
  -3.3934279607e-03
  -3.3656762331e-03
  -3.3379245056e-03
  -3.3101727781e-03
  -3.2824210505e-03
  -3.2546693230e-03
  -3.2269175954e-03
  -3.1991658679e-03
  -3.1714141403e-03
  -3.1436624128e-03
  -3.1159106852e-03
  -3.0881589577e-03
  -3.0604072302e-03
  -3.0326555026e-03
  -3.0049037751e-03
  -2.9771520475e-03
  -2.9494003200e-03
  -2.9216485924e-03
  -2.8938968649e-03
  -2.8661451374e-03
  -2.8383934098e-03
  -2.8106416823e-03
  -2.7828899547e-03
  -2.7551382272e-03
  -2.7273864996e-03
  -2.6996347721e-03
  -2.6718830446e-03
  -2.6441313170e-03
  -2.6163795895e-03
  -2.5886278619e-03
  -2.5608761344e-03
  -2.5331244068e-03
  -2.5053726793e-03
  -2.4776209518e-03
  -2.4498692242e-03
  -2.4221174967e-03
  -2.3943657691e-03
  -2.3666140416e-03
  -2.3388623140e-03
  -2.3111105865e-03
  -2.2833588589e-03
  -2.2556071314e-03
  -2.2278554039e-03
  -2.2001036763e-03
  -2.1723519488e-03
  -2.1446002212e-03
  -2.1168484937e-03
  -2.0890967661e-03
  -2.0613450386e-03
  -2.0335933111e-03
  -2.0058415835e-03
  -1.9780898560e-03
  -1.9503381284e-03
  -1.9225864009e-03
  -1.8948346733e-03
  -1.8670829458e-03
  -1.8393312183e-03
  -1.8115794907e-03
  -1.7838277632e-03
  -1.7560760356e-03
  -1.7283243081e-03
  -1.7005725805e-03
  -1.6728208530e-03
  -1.6450691255e-03
  -1.6173173979e-03
  -1.5895656704e-03
  -1.5618139428e-03
  -1.5340622153e-03
  -1.5063104877e-03
  -1.4785587602e-03
  -1.4508070326e-03
  -1.4230553051e-03
  -1.3953035776e-03
  -1.3675518500e-03
  -1.3398001225e-03
  -1.3120483949e-03
  -1.2842966674e-03
  -1.2565449398e-03
  -1.2287932123e-03
  -1.2010414848e-03
  -1.1732897572e-03
  -1.1455380297e-03
  -1.1177863021e-03
  -1.0900345746e-03
  -1.0622828470e-03
  -1.0345311195e-03
  -1.0067793920e-03
  -9.7902766441e-04
  -9.5127593687e-04
  -9.2352420933e-04
  -8.9577248178e-04
  -8.6802075424e-04
  -8.4026902670e-04
  -8.1251729915e-04
  -7.8476557161e-04
  -7.5701384407e-04
  -7.2926211652e-04
  -7.0151038898e-04
  -6.7375866144e-04
  -6.4600693389e-04
  -6.1825520635e-04
  -5.9050347881e-04
  -5.6275175126e-04
  -5.3500002372e-04
  -5.0724829618e-04
  -4.7949656863e-04
  -4.5174484109e-04
  -4.2399311355e-04
  -3.9624138600e-04
  -3.6848965846e-04
  -3.4073793092e-04
  -3.1298620337e-04
  -2.8523447583e-04
  -2.5748274829e-04
  -2.2973102074e-04
  -2.0197929320e-04
  -1.7422756566e-04
  -1.4647583811e-04
  -1.1872411057e-04
  -9.0972383025e-05
  -6.3220655482e-05
  -3.5468927939e-05
  -7.7172003953e-06
  2.0034527148e-05
  4.7786254691e-05
  7.5537982235e-05
  1.0328970978e-04
  1.3104143732e-04
  1.5879316486e-04
  1.8654489241e-04
  2.1429661995e-04
  2.4204834749e-04
  2.6980007504e-04
  2.9755180258e-04
  3.2530353012e-04
  3.5305525767e-04
  3.8080698521e-04
  4.0855871275e-04
  4.3631044030e-04
  4.6406216784e-04
  4.9181389538e-04
  5.1956562293e-04
  5.4731735047e-04
  5.7506907801e-04
  6.0282080556e-04
  6.3057253310e-04
  6.5832426064e-04
  6.8607598819e-04
  7.1382771573e-04
  7.4157944327e-04
  7.6933117082e-04
  7.9708289836e-04
  8.2483462590e-04
  8.5258635345e-04
  8.8033808099e-04
  9.0882310509e-04
  9.3769058106e-04
  9.6662430988e-04
  9.9562444361e-04
  1.0246911347e-03
  1.0538245358e-03
  1.0830248000e-03
  1.1122920809e-03
  1.1416265323e-03
  1.1710283082e-03
  1.2004975632e-03
  1.2300344522e-03
  1.2596391304e-03
  1.2893117534e-03
  1.3190524771e-03
  1.3488614579e-03
  1.3787388523e-03
  1.4086848173e-03
  1.4386995105e-03
  1.4687830894e-03
  1.4989357123e-03
  1.5291575374e-03
  1.5594487238e-03
  1.5898094305e-03
  1.6202398172e-03
  1.6507400437e-03
  1.6813102703e-03
  1.7119506577e-03
  1.7426613669e-03
  1.7734425593e-03
  1.8042943966e-03
  1.8352170411e-03
  1.8662106552e-03
  1.8972754017e-03
  1.9284114440e-03
  1.9596189457e-03
  1.9908980707e-03
  2.0222489835e-03
  2.0536718488e-03
  2.0851668318e-03
  2.1167340979e-03
  2.1483738131e-03
  2.1800861436e-03
  2.2118712561e-03
  2.2437293176e-03
  2.2756604956e-03
  2.3076649578e-03
  2.3397428725e-03
  2.3718944082e-03
  2.4041197339e-03
  2.4364190190e-03
  2.4687924331e-03
  2.5012401465e-03
  2.5337623296e-03
  2.5663591534e-03
  2.5990307892e-03
  2.6317774086e-03
  2.6645991837e-03
  2.6974962871e-03
  2.7304688917e-03
  2.7635171706e-03
  2.7966412976e-03
  2.8298414468e-03
  2.8631177926e-03
  2.8964705099e-03
  2.9298997741e-03
  2.9634057606e-03
  2.9969886458e-03
  3.0306486060e-03
  3.0643858181e-03
  3.0982004594e-03
  3.1320927077e-03
  3.1660627411e-03
  3.2001107380e-03
  3.2342368774e-03
  3.2684413387e-03
  3.3027243016e-03
  3.3370859462e-03
  3.3715264532e-03
  3.4060460035e-03
  3.4406447786e-03
  3.4753229603e-03
  3.5100807308e-03
  3.5449182728e-03
  3.5798357693e-03
  3.6148334039e-03
  3.6499113605e-03
  3.6850698235e-03
  3.7203089775e-03
  3.7556290078e-03
  3.7910301001e-03
  3.8265124403e-03
  3.8620762149e-03
  3.8977216108e-03
  3.9334488154e-03
  3.9692580164e-03
  4.0051494020e-03
  4.0411231608e-03
  4.0771794818e-03
  4.1133185546e-03
  4.1495405691e-03
  4.1858457156e-03
  4.2222341849e-03
  4.2587061683e-03
  4.2952618574e-03
  4.3319014443e-03
  4.3686251216e-03
  4.4054330823e-03
  4.4423255198e-03
  4.4793026280e-03
  4.5163646012e-03
  4.5535116342e-03
  4.5907439222e-03
  4.6280616609e-03
  4.6654650463e-03
  4.7029542752e-03
  4.7405295443e-03
  4.7781910514e-03
  4.8159389942e-03
  4.8537735711e-03
  4.8916949810e-03
  4.9297034232e-03
  4.9677990973e-03
  5.0059822037e-03
  5.0442529429e-03
  5.0826115161e-03
  5.1210581249e-03
  5.1595929714e-03
  5.1982162579e-03
  5.2369281876e-03
  5.2757289638e-03
  5.3146187905e-03
  5.3535978720e-03
  5.3926664132e-03
  5.4318246194e-03
  5.4710726964e-03
  5.5104108505e-03
  5.5498392883e-03
  5.5893582171e-03
  5.6289678446e-03
  5.6686683790e-03
  5.7084600288e-03
  5.7483430031e-03
  5.7883175117e-03
  5.8283837645e-03
  5.8685419722e-03
  5.9087923457e-03
  5.9491350966e-03
  5.9895704369e-03
  6.0300985791e-03
  6.0707197362e-03
  6.1114341216e-03
  6.1522419494e-03
  6.1931434339e-03
  6.2341387902e-03
  6.2752282337e-03
  6.3164119803e-03
  6.3576902464e-03
  6.3990632490e-03
  6.4405312055e-03
  6.4820943338e-03
  6.5237528524e-03
  6.5655069801e-03
  6.6073569365e-03
  6.6493029414e-03
  6.6913452153e-03
  6.7334839791e-03
  6.7757194543e-03
  6.8180518628e-03
  6.8604814271e-03
  6.9030083702e-03
  6.9456329156e-03
  6.9883552872e-03
  7.0311757097e-03
  7.0740944079e-03
  7.1171116076e-03
  7.1602275347e-03
  7.2034424158e-03
  7.2467564781e-03
  7.2901699491e-03
  7.3336830571e-03
  7.3772960306e-03
  7.4210090990e-03
  7.4648224918e-03
  7.5087364394e-03
  7.5527511726e-03
  7.5968669226e-03
  7.6410839213e-03
  7.6854024010e-03
  7.7298225948e-03
  7.7743447359e-03
  7.8189690585e-03
  7.8636957969e-03
  7.9085251863e-03
  7.9534574623e-03
  7.9984928609e-03
  8.0436316189e-03
  8.0888739734e-03
  8.1342201623e-03
  8.1796704238e-03
  8.2252249968e-03
  8.2708841207e-03
  8.3166480355e-03
  8.3625169816e-03
  8.4084912001e-03
  8.4545709326e-03
  8.5007564213e-03
  8.5470479088e-03
  8.5934456385e-03
  8.6399498543e-03
  8.6865608004e-03
  8.7332787218e-03
  8.7801038641e-03
  8.8270364734e-03
  8.8740767962e-03
  8.9212250798e-03
  8.9684815720e-03
  9.0158465211e-03
  9.0633201760e-03
  9.1109027863e-03
  9.1585946019e-03
  9.2063958736e-03
  9.2543068524e-03
  9.3023277903e-03
  9.3504589396e-03
  9.3987005531e-03
  9.4470528845e-03
  9.4955161878e-03
  9.5440907178e-03
  9.5927767297e-03
  9.6415744793e-03
  9.6904842232e-03
  9.7395062182e-03
  9.7886407222e-03
  9.8378879932e-03
  9.8872482901e-03
  9.9367218723e-03
  9.9863089998e-03
  1.0036009933e-02
  1.0085824934e-02
  1.0135754263e-02
  1.0185798184e-02
  1.0235956958e-02
  1.0286230851e-02
  1.0336620126e-02
  1.0387125048e-02
  1.0437745881e-02
  1.0488482894e-02
  1.0539336351e-02
  1.0590306520e-02
  1.0641393670e-02
  1.0692598068e-02
  1.0743919983e-02
  1.0795359686e-02
  1.0846917447e-02
  1.0898593536e-02
  1.0950388225e-02
  1.1002301787e-02
  1.1054334494e-02
  1.1106486620e-02
  1.1158758438e-02
  1.1211150224e-02
  1.1263662253e-02
  1.1316294800e-02
  1.1369048143e-02
  1.1421922558e-02
  1.1474918324e-02
  1.1528035719e-02
  1.1581275021e-02
  1.1634636512e-02
  1.1688120471e-02
  1.1741727179e-02
  1.1795456919e-02
  1.1849309972e-02
  1.1903286621e-02
  1.1957387150e-02
  1.2011611844e-02
  1.2065960988e-02
  1.2120434866e-02
  1.2175033766e-02
  1.2229757974e-02
  1.2284607778e-02
  1.2339583466e-02
  1.2394685327e-02
  1.2449913650e-02
  1.2505268726e-02
  1.2560750846e-02
  1.2616360302e-02
  1.2672097385e-02
  1.2727962388e-02
  1.2783955605e-02
  1.2840077331e-02
  1.2896327860e-02
  1.2952707488e-02
  1.3009216510e-02
  1.3065855225e-02
  1.3122623930e-02
  1.3179522923e-02
  1.3236552503e-02
  1.3293712970e-02
  1.3351004624e-02
  1.3408427766e-02
  1.3465982699e-02
  1.3523669724e-02
  1.3581489144e-02
  1.3639441265e-02
  1.3697526389e-02
  1.3755744823e-02
  1.3814096872e-02
  1.3872582843e-02
  1.3931203043e-02
  1.3989957781e-02
  1.4048847365e-02
  1.4107872105e-02
  1.4167032310e-02
  1.4226328293e-02
  1.4285760363e-02
  1.4345328835e-02
  1.4405034020e-02
  1.4464876233e-02
  1.4524855787e-02
  1.4584972999e-02
  1.4645228184e-02
  1.4705621659e-02
  1.4766153741e-02
  1.4826824748e-02
  1.4887635000e-02
  1.4948584815e-02
  1.5009674515e-02
  1.5070904419e-02
  1.5132274850e-02
  1.5193786131e-02
  1.5255438584e-02
  1.5317232534e-02
  1.5379168305e-02
  1.5441246223e-02
  1.5503466615e-02
  1.5565829806e-02
  1.5628336125e-02
  1.5690985901e-02
  1.5753779462e-02
  1.5816717138e-02
  1.5879799261e-02
  1.5943026162e-02
  1.6006398173e-02
  1.6069915627e-02
  1.6133578858e-02
  1.6197388201e-02
  1.6261343990e-02
  1.6325446562e-02
  1.6389696255e-02
  1.6454093404e-02
  1.6518638350e-02
  1.6583331430e-02
  1.6648172986e-02
  1.6713163358e-02
  1.6778302887e-02
  1.6843591915e-02
  1.6909030787e-02
  1.6974619845e-02
  1.7040359435e-02
  1.7106249901e-02
  1.7172291591e-02
  1.7238484851e-02
  1.7304830029e-02
  1.7371327474e-02
  1.7437977535e-02
  1.7504780563e-02
  1.7571736908e-02
  1.7638846923e-02
  1.7706110959e-02
  1.7773529372e-02
  1.7841102514e-02
  1.7908830741e-02
  1.7976714410e-02
  1.8044753876e-02
  1.8112949497e-02
  1.8181301632e-02
  1.8249810640e-02
  1.8318476880e-02
  1.8387300715e-02
  1.8456282505e-02
  1.8525422612e-02
  1.8594721402e-02
  1.8664179236e-02
  1.8733796482e-02
  1.8803573503e-02
  1.8873510668e-02
  1.8943608343e-02
  1.9013866898e-02
  1.9084286700e-02
  1.9154868121e-02
  1.9225611531e-02
  1.9296517303e-02
  1.9367585807e-02
  1.9438817419e-02
  1.9510212513e-02
  1.9581771463e-02
  1.9653494646e-02
  1.9725382438e-02
  1.9797435218e-02
  1.9869653364e-02
  1.9942037256e-02
  2.0014587273e-02
  2.0087303798e-02
  2.0160187213e-02
  2.0233237900e-02
  2.0306456243e-02
  2.0379842628e-02
  2.0453397439e-02
  2.0527121064e-02
  2.0601013889e-02
  2.0675076304e-02
  2.0749308697e-02
  2.0823711458e-02
  2.0898284979e-02
  2.0973029651e-02
  2.1047945868e-02
  2.1123034022e-02
  2.1198294509e-02
  2.1273727724e-02
  2.1349334063e-02
  2.1425113925e-02
  2.1501067706e-02
  2.1577195806e-02
  2.1653498626e-02
  2.1729976565e-02
  2.1806630027e-02
  2.1883459414e-02
  2.1960465130e-02
  2.2037647579e-02
  2.2115007168e-02
  2.2192544301e-02
  2.2270259388e-02
  2.2348152837e-02
  2.2426225056e-02
  2.2504476456e-02
  2.2582907449e-02
  2.2661518446e-02
  2.2740309861e-02
  2.2819282108e-02
  2.2898435601e-02
  2.2977770758e-02
  2.3057287994e-02
  2.3136987727e-02
  2.3216870377e-02
  2.3296936363e-02
  2.3377186106e-02
  2.3457620027e-02
  2.3538238551e-02
  2.3619042099e-02
  2.3700031097e-02
  2.3781205970e-02
  2.3862567145e-02
  2.3944115050e-02
  2.4025850113e-02
  2.4107772763e-02
  2.4189883432e-02
  2.4272182550e-02
  2.4354670550e-02
  2.4437347866e-02
  2.4520214933e-02
  2.4603272184e-02
  2.4686520058e-02
  2.4769958992e-02
  2.4853589424e-02
  2.4937411793e-02
  2.5021426541e-02
  2.5105634108e-02
  2.5190034937e-02
  2.5274629472e-02
  2.5359418157e-02
  2.5444401439e-02
  2.5529579762e-02
  2.5614953576e-02
  2.5700523329e-02
  2.5786289470e-02
  2.5872252450e-02
  2.5958412722e-02
  2.6044770737e-02
  2.6131326950e-02
  2.6218081815e-02
  2.6305035789e-02
  2.6392189328e-02
  2.6479542890e-02
  2.6567096935e-02
  2.6654851923e-02
  2.6742808314e-02
  2.6830966571e-02
  2.6919327158e-02
  2.7007890538e-02
  2.7096657177e-02
  2.7185627542e-02
  2.7274802100e-02
  2.7364181320e-02
  2.7453765671e-02
  2.7543555624e-02
  2.7633551652e-02
  2.7723754227e-02
  2.7814163823e-02
  2.7904780915e-02
  2.7995605980e-02
  2.8086639494e-02
  2.8177881937e-02
  2.8269333787e-02
  2.8360995526e-02
  2.8452867634e-02
  2.8544950596e-02
  2.8637244894e-02
  2.8729751014e-02
  2.8822469442e-02
  2.8915400666e-02
  2.9008545173e-02
  2.9101903452e-02
  2.9195475996e-02
  2.9289263295e-02
  2.9383265842e-02
  2.9477484132e-02
  2.9571918659e-02
  2.9666569920e-02
  2.9761438413e-02
  2.9856524635e-02
  2.9951829086e-02
  3.0047352268e-02
  3.0143094682e-02
  3.0239056831e-02
  3.0335239220e-02
  3.0431642355e-02
  3.0528266741e-02
  3.0625112887e-02
  3.0722181301e-02
  3.0819472495e-02
  3.0916986978e-02
  3.1014725264e-02
  3.1112687865e-02
  3.1210875298e-02
  3.1309288078e-02
  3.1407926722e-02
  3.1506791748e-02
  3.1605883677e-02
  3.1705203028e-02
  3.1804750324e-02
  3.1904526088e-02
  3.2004530844e-02
  3.2104765118e-02
  3.2205229437e-02
  3.2305924328e-02
  3.2406850321e-02
  3.2508007946e-02
  3.2609397735e-02
  3.2711020220e-02
  3.2812875936e-02
  3.2914965418e-02
  3.3017289202e-02
  3.3119847827e-02
  3.3222641830e-02
  3.3325671753e-02
  3.3428938137e-02
  3.3532441524e-02
  3.3636182459e-02
  3.3740161486e-02
  3.3844379153e-02
  3.3948836006e-02
  3.4053532594e-02
  3.4158469469e-02
  3.4263647181e-02
  3.4369066283e-02
  3.4474727330e-02
  3.4580630875e-02
  3.4686777477e-02
  3.4793167692e-02
  3.4899802081e-02
  3.5006681202e-02
  3.5113805619e-02
  3.5221175893e-02
  3.5328792590e-02
  3.5436656275e-02
  3.5544767514e-02
  3.5653126875e-02
  3.5761734930e-02
  3.5870592247e-02
  3.5979699399e-02
  3.6089056959e-02
  3.6198665503e-02
  3.6308525606e-02
  3.6418637845e-02
  3.6529002800e-02
  3.6639621050e-02
  3.6750493176e-02
  3.6861619762e-02
  3.6973001391e-02
  3.7084638648e-02
  3.7196532121e-02
  3.7308682396e-02
  3.7421090065e-02
  3.7533755716e-02
  3.7646679944e-02
  3.7759863340e-02
  3.7873306500e-02
  3.7987010019e-02
  3.8100974497e-02
  3.8215200530e-02
  3.8329688720e-02
  3.8444439669e-02
  3.8559453979e-02
  3.8674732254e-02
  3.8790275101e-02
  3.8906083127e-02
  3.9022156941e-02
  3.9138497152e-02
  3.9255104372e-02
  3.9371979213e-02
  3.9489122290e-02
  3.9606534219e-02
  3.9724215616e-02
  3.9842167100e-02
  3.9960389291e-02
  4.0078882810e-02
  4.0197648279e-02
  4.0316686324e-02
  4.0435997570e-02
  4.0555582642e-02
  4.0675442171e-02
  4.0795576786e-02
  4.0915987118e-02
  4.1036673800e-02
  4.1157637466e-02
  4.1278878752e-02
  4.1400398296e-02
  4.1522196735e-02
  4.1644274710e-02
  4.1766632862e-02
  4.1889271835e-02
  4.2012192273e-02
  4.2135394821e-02
  4.2258880128e-02
  4.2382648843e-02
  4.2506701615e-02
  4.2631039096e-02
  4.2755661941e-02
  4.2880570804e-02
  4.3005766341e-02
  4.3131249211e-02
  4.3257020073e-02
  4.3383079587e-02
  4.3509428417e-02
  4.3636067226e-02
  4.3762996680e-02
  4.3890217446e-02
  4.4017730192e-02
  4.4145535588e-02
  4.4273634307e-02
  4.4402027022e-02
  4.4530714406e-02
  4.4659697137e-02
  4.4788975892e-02
  4.4918551351e-02
  4.5048424195e-02
  4.5178595105e-02
  4.5309064767e-02
  4.5439833866e-02
  4.5570903089e-02
  4.5702273125e-02
  4.5833944664e-02
  4.5965918398e-02
  4.6098195022e-02
  4.6230775229e-02
  4.6363659717e-02
  4.6496849184e-02
  4.6630344330e-02
  4.6764145857e-02
  4.6898254467e-02
  4.7032670866e-02
  4.7167395760e-02
  4.7302429857e-02
  4.7437773866e-02
  4.7573428500e-02
  4.7709394470e-02
  4.7845672491e-02
  4.7982263280e-02
  4.8119167554e-02
  4.8256386033e-02
  4.8393919438e-02
  4.8531768491e-02
  4.8669933918e-02
  4.8808416443e-02
  4.8947216796e-02
  4.9086335705e-02
  4.9225773902e-02
  4.9365532119e-02
  4.9505611091e-02
  4.9646011553e-02
  4.9786734245e-02
  4.9927779904e-02
  5.0069149273e-02
  5.0210843095e-02
  5.0352862114e-02
  5.0495207076e-02
  5.0637878730e-02
  5.0780877825e-02
  5.0924205113e-02
  5.1067861347e-02
  5.1211847282e-02
  5.1356163674e-02
  5.1500811283e-02
  5.1645790868e-02
  5.1791103191e-02
  5.1936749016e-02
  5.2082729108e-02
  5.2229044235e-02
  5.2375695164e-02
  5.2522682668e-02
  5.2670007519e-02
  5.2817670490e-02
  5.2965672358e-02
  5.3114013900e-02
  5.3262695896e-02
  5.3411719128e-02
  5.3561084379e-02
  5.3710792433e-02
  5.3860844077e-02
  5.4011240100e-02
  5.4161981293e-02
  5.4313068447e-02
  5.4464502356e-02
  5.4616283817e-02
  5.4768413627e-02
  5.4920892585e-02
  5.5073721493e-02
  5.5226901153e-02
  5.5380432372e-02
  5.5534315956e-02
  5.5688552712e-02
  5.5843143453e-02
  5.5998088991e-02
  5.6153390139e-02
  5.6309047714e-02
  5.6465062533e-02
  5.6621435418e-02
  5.6778167189e-02
  5.6935258671e-02
  5.7092710688e-02
  5.7250524068e-02
  5.7408699641e-02
  5.7567238238e-02
  5.7726140692e-02
  5.7885407838e-02
  5.8045040514e-02
  5.8205039557e-02
  5.8365405809e-02
  5.8526140113e-02
  5.8687243313e-02
  5.8848716256e-02
  5.9010559790e-02
  5.9172774767e-02
  5.9335362038e-02
  5.9498322459e-02
  5.9661656884e-02
  5.9825366174e-02
  5.9989451188e-02
  6.0153912788e-02
  6.0318751839e-02
  6.0483969206e-02
  6.0649565760e-02
  6.0815542368e-02
  6.0981899905e-02
  6.1148639243e-02
  6.1315761260e-02
  6.1483266833e-02
  6.1651156844e-02
  6.1819432173e-02
  6.1988093706e-02
  6.2157142329e-02
  6.2326578930e-02
  6.2496404399e-02
  6.2666619630e-02
  6.2837225517e-02
  6.3008222956e-02
  6.3179612846e-02
  6.3351396088e-02
  6.3523573584e-02
  6.3696146239e-02
  6.3869114960e-02
  6.4042480657e-02
  6.4216244240e-02
  6.4390406622e-02
  6.4564968719e-02
  6.4739931448e-02
  6.4915295728e-02
  6.5091062482e-02
  6.5267232633e-02
  6.5443807106e-02
  6.5620786830e-02
  6.5798172734e-02
  6.5975965752e-02
  6.6154166816e-02
  6.6332776865e-02
  6.6511796836e-02
  6.6691227670e-02
  6.6871070310e-02
  6.7051325702e-02
  6.7231994792e-02
  6.7413078530e-02
  6.7594577868e-02
  6.7776493759e-02
  6.7958827160e-02
  6.8141579029e-02
  6.8324750325e-02
  6.8508342013e-02
  6.8692355056e-02
  6.8876790422e-02
  6.9061649080e-02
  6.9246932001e-02
  6.9432640159e-02
  6.9618774531e-02
  6.9805336093e-02
  6.9992325828e-02
  7.0179744716e-02
  7.0367593744e-02
  7.0555873899e-02
  7.0744586169e-02
  7.0933731547e-02
  7.1123311027e-02
  7.1313325605e-02
  7.1503776279e-02
  7.1694664051e-02
