ocio/luts/lin_to_Rec709_oetf.spi1d
Version 1
From 0.0000000000 1.0000000000
Length 4096
Components 1
{
  0.0000000000e+00
  1.0989010989e-03
  2.1978021978e-03
  3.2967032967e-03
  4.3956043956e-03
  5.4945054945e-03
  6.5934065934e-03
  7.6923076923e-03
  8.7912087912e-03
  9.8901098901e-03
  1.0989010989e-02
  1.2087912088e-02
  1.3186813187e-02
  1.4285714286e-02
  1.5384615385e-02
  1.6483516484e-02
  1.7582417582e-02
  1.8681318681e-02
  1.9780219780e-02
  2.0879120879e-02
  2.1978021978e-02
  2.3076923077e-02
  2.4175824176e-02
  2.5274725275e-02
  2.6373626374e-02
  2.7472527473e-02
  2.8571428571e-02
  2.9670329670e-02
  3.0769230769e-02
  3.1868131868e-02
  3.2967032967e-02
  3.4065934066e-02
  3.5164835165e-02
  3.6263736264e-02
  3.7362637363e-02
  3.8461538462e-02
  3.9560439560e-02
  4.0659340659e-02
  4.1758241758e-02
  4.2857142857e-02
  4.3956043956e-02
  4.5054945055e-02
  4.6153846154e-02
  4.7252747253e-02
  4.8351648352e-02
  4.9450549451e-02
  5.0549450549e-02
  5.1648351648e-02
  5.2747252747e-02
  5.3846153846e-02
  5.4945054945e-02
  5.6043956044e-02
  5.7142857143e-02
  5.8241758242e-02
  5.9340659341e-02
  6.0439560440e-02
  6.1538461538e-02
  6.2637362637e-02
  6.3736263736e-02
  6.4835164835e-02
  6.5934065934e-02
  6.7032967033e-02
  6.8131868132e-02
  6.9230769231e-02
  7.0329670330e-02
  7.1428571429e-02
  7.2527472527e-02
  7.3626373626e-02
  7.4725274725e-02
  7.5824175824e-02
  7.6923076923e-02
  7.8021978022e-02
  7.9120879121e-02
  8.0219780220e-02
  8.1318661868e-02
  8.2412945894e-02
  8.3499234223e-02
  8.4577689344e-02
  8.5648468386e-02
  8.6711723359e-02
  8.7767601382e-02
  8.8816244900e-02
  8.9857791890e-02
  9.0892376051e-02
  9.1920126988e-02
  9.2941170385e-02
  9.3955628166e-02
  9.4963618652e-02
  9.5965256707e-02
  9.6960653875e-02
  9.7949918517e-02
  9.8933155930e-02
  9.9910468470e-02
  1.0088195566e-01
  1.0184771432e-01
  1.0280783862e-01
  1.0376242024e-01
  1.0471154841e-01
  1.0565531004e-01
  1.0659378976e-01
  1.0752707005e-01
  1.0845523128e-01
  1.0937835180e-01
  1.1029650801e-01
  1.1120977440e-01
  1.1211822368e-01
  1.1302192676e-01
  1.1392095287e-01
  1.1481536960e-01
  1.1570524291e-01
  1.1659063727e-01
  1.1747161563e-01
  1.1834823951e-01
  1.1922056901e-01
  1.2008866291e-01
  1.2095257866e-01
  1.2181237243e-01
  1.2266809918e-01
  1.2351981266e-01
  1.2436756547e-01
  1.2521140907e-01
  1.2605139385e-01
  1.2688756913e-01
  1.2771998319e-01
  1.2854868334e-01
  1.2937371589e-01
  1.3019512622e-01
  1.3101295879e-01
  1.3182725719e-01
  1.3263806410e-01
  1.3344542140e-01
  1.3424937014e-01
  1.3504995055e-01
  1.3584720210e-01
  1.3664116352e-01
  1.3743187279e-01
  1.3821936716e-01
  1.3900368320e-01
  1.3978485681e-01
  1.4056292321e-01
  1.4133791697e-01
  1.4210987206e-01
  1.4287882181e-01
  1.4364479896e-01
  1.4440783567e-01
  1.4516796354e-01
  1.4592521359e-01
  1.4667961633e-01
  1.4743120172e-01
  1.4817999921e-01
  1.4892603775e-01
  1.4966934580e-01
  1.5040995134e-01
  1.5114788187e-01
  1.5188316445e-01
  1.5261582568e-01
  1.5334589173e-01
  1.5407338833e-01
  1.5479834082e-01
  1.5552077411e-01
  1.5624071271e-01
  1.5695818075e-01
  1.5767320197e-01
  1.5838579975e-01
  1.5909599709e-01
  1.5980381664e-01
  1.6050928070e-01
  1.6121241123e-01
  1.6191322985e-01
  1.6261175786e-01
  1.6330801624e-01
  1.6400202563e-01
  1.6469380640e-01
  1.6538337860e-01
  1.6607076199e-01
  1.6675597602e-01
  1.6743903989e-01
  1.6811997250e-01
  1.6879879250e-01
  1.6947551823e-01
  1.7015016782e-01
  1.7082275911e-01
  1.7149330971e-01
  1.7216183696e-01
  1.7282835798e-01
  1.7349288965e-01
  1.7415544860e-01
  1.7481605125e-01
  1.7547471380e-01
  1.7613145221e-01
  1.7678628225e-01
  1.7743921946e-01
  1.7809027917e-01
  1.7873947653e-01
  1.7938682646e-01
  1.8003234372e-01
  1.8067604284e-01
  1.8131793818e-01
  1.8195804392e-01
  1.8259637404e-01
  1.8323294236e-01
  1.8386776252e-01
  1.8450084797e-01
  1.8513221201e-01
  1.8576186776e-01
  1.8638982819e-01
  1.8701610610e-01
  1.8764071412e-01
  1.8826366476e-01
  1.8888497034e-01
  1.8950464304e-01
  1.9012269491e-01
  1.9073913783e-01
  1.9135398356e-01
  1.9196724369e-01
  1.9257892971e-01
  1.9318905294e-01
  1.9379762459e-01
  1.9440465572e-01
  1.9501015727e-01
  1.9561414006e-01
  1.9621661477e-01
  1.9681759196e-01
  1.9741708209e-01
  1.9801509546e-01
  1.9861164230e-01
  1.9920673269e-01
  1.9980037660e-01
  2.0039258390e-01
  2.0098336435e-01
  2.0157272759e-01
  2.0216068316e-01
  2.0274724049e-01
  2.0333240892e-01
  2.0391619768e-01
  2.0449861589e-01
  2.0507967258e-01
  2.0565937669e-01
  2.0623773704e-01
  2.0681476239e-01
  2.0739046138e-01
  2.0796484256e-01
  2.0853791440e-01
  2.0910968528e-01
  2.0968016349e-01
  2.1024935723e-01
  2.1081727461e-01
  2.1138392368e-01
  2.1194931237e-01
  2.1251344857e-01
  2.1307634005e-01
  2.1363799452e-01
  2.1419841963e-01
  2.1475762291e-01
  2.1531561185e-01
  2.1587239385e-01
  2.1642797623e-01
  2.1698236627e-01
  2.1753557112e-01
  2.1808759792e-01
  2.1863845370e-01
  2.1918814543e-01
  2.1973668003e-01
  2.2028406433e-01
  2.2083030510e-01
  2.2137540905e-01
  2.2191938282e-01
  2.2246223299e-01
  2.2300396608e-01
  2.2354458854e-01
  2.2408410677e-01
  2.2462252709e-01
  2.2515985578e-01
  2.2569609906e-01
  2.2623126307e-01
  2.2676535393e-01
  2.2729837767e-01
  2.2783034028e-01
  2.2836124769e-01
  2.2889110578e-01
  2.2941992037e-01
  2.2994769724e-01
  2.3047444210e-01
  2.3100016062e-01
  2.3152485841e-01
  2.3204854104e-01
  2.3257121403e-01
  2.3309288285e-01
  2.3361355290e-01
  2.3413322957e-01
  2.3465191816e-01
  2.3516962397e-01
  2.3568635222e-01
  2.3620210809e-01
  2.3671689673e-01
  2.3723072322e-01
  2.3774359263e-01
  2.3825550995e-01
  2.3876648014e-01
  2.3927650814e-01
  2.3978559883e-01
  2.4029375703e-01
  2.4080098755e-01
  2.4130729514e-01
  2.4181268452e-01
  2.4231716038e-01
  2.4282072734e-01
  2.4332339000e-01
  2.4382515294e-01
  2.4432602067e-01
  2.4482599767e-01
  2.4532508841e-01
  2.4582329729e-01
  2.4632062868e-01
  2.4681708694e-01
  2.4731267636e-01
  2.4780740122e-01
  2.4830126576e-01
  2.4879427417e-01
  2.4928643064e-01
  2.4977773928e-01
  2.5026820421e-01
  2.5075782951e-01
  2.5124661919e-01
  2.5173457728e-01
  2.5222170774e-01
  2.5270801453e-01
  2.5319350155e-01
  2.5367817269e-01
  2.5416203179e-01
  2.5464508269e-01
  2.5512732917e-01
  2.5560877500e-01
  2.5608942391e-01
  2.5656927961e-01
  2.5704834577e-01
  2.5752662606e-01
  2.5800412408e-01
  2.5848084344e-01
  2.5895678770e-01
  2.5943196041e-01
  2.5990636507e-01
  2.6038000518e-01
  2.6085288420e-01
  2.6132500557e-01
  2.6179637269e-01
  2.6226698895e-01
  2.6273685772e-01
  2.6320598232e-01
  2.6367436608e-01
  2.6414201228e-01
  2.6460892418e-01
  2.6507510502e-01
  2.6554055803e-01
  2.6600528639e-01
  2.6646929327e-01
  2.6693258182e-01
  2.6739515517e-01
  2.6785701642e-01
  2.6831816865e-01
  2.6877861492e-01
  2.6923835826e-01
  2.6969740170e-01
  2.7015574822e-01
  2.7061340081e-01
  2.7107036240e-01
  2.7152663594e-01
  2.7198222434e-01
  2.7243713049e-01
  2.7289135726e-01
  2.7334490750e-01
  2.7379778404e-01
  2.7424998970e-01
  2.7470152727e-01
  2.7515239952e-01
  2.7560260921e-01
  2.7605215907e-01
  2.7650105183e-01
  2.7694929018e-01
  2.7739687681e-01
  2.7784381437e-01
  2.7829010552e-01
  2.7873575288e-01
  2.7918075907e-01
  2.7962512666e-01
  2.8006885825e-01
  2.8051195639e-01
  2.8095442361e-01
  2.8139626246e-01
  2.8183747543e-01
  2.8227806501e-01
  2.8271803369e-01
  2.8315738392e-01
  2.8359611815e-01
  2.8403423880e-01
  2.8447174829e-01
  2.8490864901e-01
  2.8534494335e-01
  2.8578063366e-01
  2.8621572230e-01
  2.8665021161e-01
  2.8708410391e-01
  2.8751740150e-01
  2.8795010668e-01
  2.8838222171e-01
  2.8881374887e-01
  2.8924469041e-01
  2.8967504855e-01
  2.9010482551e-01
  2.9053402351e-01
  2.9096264474e-01
  2.9139069137e-01
  2.9181816557e-01
  2.9224506949e-01
  2.9267140528e-01
  2.9309717505e-01
  2.9352238093e-01
  2.9394702500e-01
  2.9437110936e-01
  2.9479463608e-01
  2.9521760722e-01
  2.9564002483e-01
  2.9606189095e-01
  2.9648320760e-01
  2.9690397680e-01
  2.9732420054e-01
  2.9774388081e-01
  2.9816301959e-01
  2.9858161884e-01
  2.9899968052e-01
  2.9941720657e-01
  2.9983419891e-01
  3.0025065946e-01
  3.0066659014e-01
  3.0108199283e-01
  3.0149686942e-01
  3.0191122179e-01
  3.0232505179e-01
  3.0273836129e-01
  3.0315115211e-01
  3.0356342609e-01
  3.0397518505e-01
  3.0438643080e-01
  3.0479716513e-01
  3.0520738984e-01
  3.0561710670e-01
  3.0602631748e-01
  3.0643502394e-01
  3.0684322783e-01
  3.0725093088e-01
  3.0765813482e-01
  3.0806484138e-01
  3.0847105225e-01
  3.0887676913e-01
  3.0928199373e-01
  3.0968672771e-01
  3.1009097274e-01
  3.1049473049e-01
  3.1089800261e-01
  3.1130079075e-01
  3.1170309653e-01
  3.1210492157e-01
  3.1250626750e-01
  3.1290713593e-01
  3.1330752844e-01
  3.1370744663e-01
  3.1410689207e-01
  3.1450586635e-01
  3.1490437102e-01
  3.1530240763e-01
  3.1569997774e-01
  3.1609708287e-01
  3.1649372457e-01
  3.1688990435e-01
  3.1728562372e-01
  3.1768088418e-01
  3.1807568724e-01
  3.1847003439e-01
  3.1886392710e-01
  3.1925736684e-01
  3.1965035509e-01
  3.2004289329e-01
  3.2043498290e-01
  3.2082662537e-01
  3.2121782211e-01
  3.2160857457e-01
  3.2199888415e-01
  3.2238875228e-01
  3.2277818035e-01
  3.2316716977e-01
  3.2355572191e-01
  3.2394383817e-01
  3.2433151992e-01
  3.2471876853e-01
  3.2510558536e-01
  3.2549197175e-01
  3.2587792907e-01
  3.2626345865e-01
  3.2664856182e-01
  3.2703323992e-01
  3.2741749425e-01
  3.2780132613e-01
  3.2818473687e-01
  3.2856772777e-01
  3.2895030012e-01
  3.2933245521e-01
  3.2971419432e-01
  3.3009551872e-01
  3.3047642967e-01
  3.3085692845e-01
  3.3123701630e-01
  3.3161669447e-01
  3.3199596420e-01
  3.3237482674e-01
  3.3275328330e-01
  3.3313133512e-01
  3.3350898341e-01
  3.3388622938e-01
  3.3426307424e-01
  3.3463951918e-01
  3.3501556541e-01
  3.3539121410e-01
  3.3576646645e-01
  3.3614132362e-01
  3.3651578679e-01
  3.3688985712e-01
  3.3726353578e-01
  3.3763682390e-01
  3.3800972266e-01
  3.3838223318e-01
  3.3875435660e-01
  3.3912609405e-01
  3.3949744667e-01
  3.3986841556e-01
  3.4023900186e-01
  3.4060920666e-01
  3.4097903107e-01
  3.4134847619e-01
  3.4171754311e-01
  3.4208623293e-01
  3.4245454672e-01
  3.4282248558e-01
  3.4319005056e-01
  3.4355724274e-01
  3.4392406318e-01
  3.4429051295e-01
  3.4465659308e-01
  3.4502230465e-01
  3.4538764868e-01
  3.4575262621e-01
  3.4611723829e-01
  3.4648148593e-01
  3.4684537017e-01
  3.4720889203e-01
  3.4757205251e-01
  3.4793485264e-01
  3.4829729341e-01
  3.4865937583e-01
  3.4902110089e-01
  3.4938246959e-01
  3.4974348291e-01
  3.5010414184e-01
  3.5046444736e-01
  3.5082440043e-01
  3.5118400204e-01
  3.5154325314e-01
  3.5190215470e-01
  3.5226070767e-01
  3.5261891301e-01
  3.5297677166e-01
  3.5333428457e-01
  3.5369145267e-01
  3.5404827691e-01
  3.5440475822e-01
  3.5476089751e-01
  3.5511669572e-01
  3.5547215377e-01
  3.5582727256e-01
  3.5618205301e-01
  3.5653649603e-01
  3.5689060252e-01
  3.5724437337e-01
  3.5759780949e-01
  3.5795091177e-01
  3.5830368108e-01
  3.5865611832e-01
  3.5900822437e-01
  3.5936000009e-01
  3.5971144637e-01
  3.6006256406e-01
  3.6041335404e-01
  3.6076381717e-01
  3.6111395429e-01
  3.6146376627e-01
  3.6181325396e-01
  3.6216241819e-01
  3.6251125982e-01
  3.6285977968e-01
  3.6320797860e-01
  3.6355585742e-01
  3.6390341697e-01
  3.6425065806e-01
  3.6459758153e-01
  3.6494418818e-01
  3.6529047883e-01
  3.6563645430e-01
  3.6598211539e-01
  3.6632746290e-01
  3.6667249763e-01
  3.6701722039e-01
  3.6736163196e-01
  3.6770573313e-01
  3.6804952470e-01
  3.6839300744e-01
  3.6873618213e-01
  3.6907904957e-01
  3.6942161050e-01
  3.6976386572e-01
  3.7010581598e-01
  3.7044746206e-01
  3.7078880470e-01
  3.7112984468e-01
  3.7147058274e-01
  3.7181101964e-01
  3.7215115612e-01
  3.7249099294e-01
  3.7283053083e-01
  3.7316977053e-01
  3.7350871279e-01
  3.7384735833e-01
  3.7418570789e-01
  3.7452376220e-01
  3.7486152197e-01
  3.7519898793e-01
  3.7553616081e-01
  3.7587304131e-01
  3.7620963015e-01
  3.7654592804e-01
  3.7688193569e-01
  3.7721765380e-01
  3.7755308308e-01
  3.7788822422e-01
  3.7822307792e-01
  3.7855764488e-01
  3.7889192578e-01
  3.7922592132e-01
  3.7955963217e-01
  3.7989305902e-01
  3.8022620256e-01
  3.8055906346e-01
  3.8089164239e-01
  3.8122394002e-01
  3.8155595703e-01
  3.8188769409e-01
  3.8221915185e-01
  3.8255033098e-01
  3.8288123213e-01
  3.8321185597e-01
  3.8354220315e-01
  3.8387227431e-01
  3.8420207012e-01
  3.8453159120e-01
  3.8486083822e-01
  3.8518981181e-01
  3.8551851260e-01
  3.8584694125e-01
  3.8617509837e-01
  3.8650298460e-01
  3.8683060057e-01
  3.8715794691e-01
  3.8748502424e-01
  3.8781183318e-01
  3.8813837436e-01
  3.8846464839e-01
  3.8879065589e-01
  3.8911639746e-01
  3.8944187372e-01
  3.8976708528e-01
  3.9009203274e-01
  3.9041671671e-01
  3.9074113779e-01
  3.9106529657e-01
  3.9138919366e-01
  3.9171282964e-01
  3.9203620511e-01
  3.9235932067e-01
  3.9268217689e-01
  3.9300477437e-01
  3.9332711368e-01
  3.9364919541e-01
  3.9397102014e-01
  3.9429258845e-01
  3.9461390090e-01
  3.9493495808e-01
  3.9525576055e-01
  3.9557630889e-01
  3.9589660365e-01
  3.9621664541e-01
  3.9653643472e-01
  3.9685597215e-01
  3.9717525825e-01
  3.9749429359e-01
  3.9781307871e-01
  3.9813161416e-01
  3.9844990051e-01
  3.9876793829e-01
  3.9908572805e-01
  3.9940327034e-01
  3.9972056569e-01
  4.0003761466e-01
  4.0035441777e-01
  4.0067097557e-01
  4.0098728859e-01
  4.0130335735e-01
  4.0161918240e-01
  4.0193476426e-01
  4.0225010346e-01
  4.0256520052e-01
  4.0288005597e-01
  4.0319467033e-01
  4.0350904411e-01
  4.0382317784e-01
  4.0413707203e-01
  4.0445072719e-01
  4.0476414384e-01
  4.0507732249e-01
  4.0539026364e-01
  4.0570296781e-01
  4.0601543550e-01
  4.0632766721e-01
  4.0663966344e-01
  4.0695142469e-01
  4.0726295146e-01
  4.0757424425e-01
  4.0788530356e-01
  4.0819612986e-01
  4.0850672367e-01
  4.0881708545e-01
  4.0912721572e-01
  4.0943711494e-01
  4.0974678360e-01
  4.1005622219e-01
  4.1036543119e-01
  4.1067441107e-01
  4.1098316232e-01
  4.1129168541e-01
  4.1159998082e-01
  4.1190804901e-01
  4.1221589046e-01
  4.1252350564e-01
  4.1283089502e-01
  4.1313805907e-01
  4.1344499824e-01
  4.1375171300e-01
  4.1405820382e-01
  4.1436447115e-01
  4.1467051545e-01
  4.1497633718e-01
  4.1528193680e-01
  4.1558731476e-01
  4.1589247151e-01
  4.1619740750e-01
  4.1650212318e-01
  4.1680661901e-01
  4.1711089542e-01
  4.1741495286e-01
  4.1771879177e-01
  4.1802241261e-01
  4.1832581580e-01
  4.1862900179e-01
  4.1893197101e-01
  4.1923472391e-01
  4.1953726090e-01
  4.1983958244e-01
  4.2014168895e-01
  4.2044358086e-01
  4.2074525860e-01
  4.2104672260e-01
  4.2134797328e-01
  4.2164901107e-01
  4.2194983639e-01
  4.2225044966e-01
  4.2255085132e-01
  4.2285104176e-01
  4.2315102142e-01
  4.2345079070e-01
  4.2375035004e-01
  4.2404969982e-01
  4.2434884048e-01
  4.2464777242e-01
  4.2494649606e-01
  4.2524501179e-01
  4.2554332003e-01
  4.2584142118e-01
  4.2613931565e-01
  4.2643700384e-01
  4.2673448616e-01
  4.2703176300e-01
  4.2732883476e-01
  4.2762570185e-01
  4.2792236465e-01
  4.2821882357e-01
  4.2851507900e-01
  4.2881113133e-01
  4.2910698095e-01
  4.2940262826e-01
  4.2969807364e-01
  4.2999331748e-01
  4.3028836017e-01
  4.3058320210e-01
  4.3087784364e-01
  4.3117228519e-01
  4.3146652713e-01
  4.3176056983e-01
  4.3205441367e-01
  4.3234805904e-01
  4.3264150631e-01
  4.3293475585e-01
  4.3322780805e-01
  4.3352066328e-01
  4.3381332190e-01
  4.3410578430e-01
  4.3439805083e-01
  4.3469012188e-01
  4.3498199780e-01
  4.3527367897e-01
  4.3556516575e-01
  4.3585645850e-01
  4.3614755759e-01
  4.3643846339e-01
  4.3672917624e-01
  4.3701969652e-01
  4.3731002458e-01
  4.3760016078e-01
  4.3789010548e-01
  4.3817985903e-01
  4.3846942179e-01
  4.3875879410e-01
  4.3904797634e-01
  4.3933696883e-01
  4.3962577194e-01
  4.3991438602e-01
  4.4020281141e-01
  4.4049104845e-01
  4.4077909751e-01
  4.4106695891e-01
  4.4135463302e-01
  4.4164212016e-01
  4.4192942068e-01
  4.4221653492e-01
  4.4250346322e-01
  4.4279020593e-01
  4.4307676337e-01
  4.4336313589e-01
  4.4364932382e-01
  4.4393532749e-01
  4.4422114725e-01
  4.4450678342e-01
  4.4479223633e-01
  4.4507750632e-01
  4.4536259372e-01
  4.4564749885e-01
  4.4593222204e-01
  4.4621676363e-01
  4.4650112392e-01
  4.4678530327e-01
  4.4706930197e-01
  4.4735312037e-01
  4.4763675877e-01
  4.4792021751e-01
  4.4820349690e-01
  4.4848659726e-01
  4.4876951891e-01
  4.4905226217e-01
  4.4933482736e-01
  4.4961721478e-01
  4.4989942476e-01
  4.5018145761e-01
  4.5046331364e-01
  4.5074499317e-01
  4.5102649650e-01
  4.5130782394e-01
  4.5158897581e-01
  4.5186995241e-01
  4.5215075406e-01
  4.5243138105e-01
  4.5271183369e-01
  4.5299211229e-01
  4.5327221716e-01
  4.5355214859e-01
  4.5383190689e-01
  4.5411149235e-01
  4.5439090529e-01
  4.5467014599e-01
  4.5494921477e-01
  4.5522811191e-01
  4.5550683771e-01
  4.5578539247e-01
  4.5606377649e-01
  4.5634199006e-01
  4.5662003347e-01
  4.5689790701e-01
  4.5717561099e-01
  4.5745314568e-01
  4.5773051139e-01
  4.5800770840e-01
  4.5828473699e-01
  4.5856159746e-01
  4.5883829010e-01
  4.5911481519e-01
  4.5939117301e-01
  4.5966736385e-01
  4.5994338800e-01
  4.6021924574e-01
  4.6049493734e-01
  4.6077046310e-01
  4.6104582330e-01
  4.6132101820e-01
  4.6159604810e-01
  4.6187091327e-01
  4.6214561399e-01
  4.6242015053e-01
  4.6269452318e-01
  4.6296873220e-01
  4.6324277788e-01
  4.6351666048e-01
  4.6379038028e-01
  4.6406393755e-01
  4.6433733257e-01
  4.6461056560e-01
  4.6488363692e-01
  4.6515654678e-01
  4.6542929548e-01
  4.6570188326e-01
  4.6597431040e-01
  4.6624657716e-01
  4.6651868382e-01
  4.6679063063e-01
  4.6706241785e-01
  4.6733404577e-01
  4.6760551463e-01
  4.6787682469e-01
  4.6814797623e-01
  4.6841896949e-01
  4.6868980475e-01
  4.6896048226e-01
  4.6923100228e-01
  4.6950136506e-01
  4.6977157086e-01
  4.7004161995e-01
  4.7031151257e-01
  4.7058124899e-01
  4.7085082945e-01
  4.7112025421e-01
  4.7138952353e-01
  4.7165863764e-01
  4.7192759682e-01
  4.7219640131e-01
  4.7246505135e-01
  4.7273354720e-01
  4.7300188912e-01
  4.7327007733e-01
  4.7353811211e-01
  4.7380599368e-01
  4.7407372230e-01
  4.7434129822e-01
  4.7460872167e-01
  4.7487599291e-01
  4.7514311217e-01
  4.7541007971e-01
  4.7567689576e-01
  4.7594356056e-01
  4.7621007436e-01
  4.7647643740e-01
  4.7674264992e-01
  4.7700871215e-01
  4.7727462434e-01
  4.7754038673e-01
  4.7780599954e-01
  4.7807146303e-01
  4.7833677741e-01
  4.7860194294e-01
  4.7886695985e-01
  4.7913182837e-01
  4.7939654873e-01
  4.7966112117e-01
  4.7992554592e-01
  4.8018982321e-01
  4.8045395327e-01
  4.8071793634e-01
  4.8098177265e-01
  4.8124546242e-01
  4.8150900588e-01
  4.8177240327e-01
  4.8203565481e-01
  4.8229876072e-01
  4.8256172124e-01
  4.8282453659e-01
  4.8308720700e-01
  4.8334973269e-01
  4.8361211389e-01
  4.8387435081e-01
  4.8413644369e-01
  4.8439839275e-01
  4.8466019820e-01
  4.8492186027e-01
  4.8518337919e-01
  4.8544475516e-01
  4.8570598842e-01
  4.8596707918e-01
  4.8622802766e-01
  4.8648883407e-01
  4.8674949864e-01
  4.8701002159e-01
  4.8727040312e-01
  4.8753064346e-01
  4.8779074282e-01
  4.8805070142e-01
  4.8831051947e-01
  4.8857019718e-01
  4.8882973477e-01
  4.8908913245e-01
  4.8934839044e-01
  4.8960750894e-01
  4.8986648816e-01
  4.9012532833e-01
  4.9038402964e-01
  4.9064259231e-01
  4.9090101654e-01
  4.9115930255e-01
  4.9141745054e-01
  4.9167546073e-01
  4.9193333331e-01
  4.9219106849e-01
  4.9244866649e-01
  4.9270612750e-01
  4.9296345173e-01
  4.9322063939e-01
  4.9347769068e-01
  4.9373460581e-01
  4.9399138497e-01
  4.9424802836e-01
  4.9450453620e-01
  4.9476090869e-01
  4.9501714601e-01
  4.9527324839e-01
  4.9552921600e-01
  4.9578504906e-01
  4.9604074777e-01
  4.9629631231e-01
  4.9655174290e-01
  4.9680703973e-01
  4.9706220298e-01
  4.9731723288e-01
  4.9757212960e-01
  4.9782689334e-01
  4.9808152430e-01
  4.9833602268e-01
  4.9859038867e-01
  4.9884462246e-01
  4.9909872424e-01
  4.9935269422e-01
  4.9960653257e-01
  4.9986023950e-01
  5.0011381519e-01
  5.0036725984e-01
  5.0062057364e-01
  5.0087375677e-01
  5.0112680943e-01
  5.0137973181e-01
  5.0163252409e-01
  5.0188518647e-01
  5.0213771913e-01
  5.0239012225e-01
  5.0264239603e-01
  5.0289454066e-01
  5.0314655631e-01
  5.0339844318e-01
  5.0365020144e-01
  5.0390183129e-01
  5.0415333291e-01
  5.0440470649e-01
  5.0465595220e-01
  5.0490707023e-01
  5.0515806076e-01
  5.0540892398e-01
  5.0565966006e-01
  5.0591026919e-01
  5.0616075155e-01
  5.0641110732e-01
  5.0666133668e-01
  5.0691143981e-01
  5.0716141689e-01
  5.0741126810e-01
  5.0766099361e-01
  5.0791059360e-01
  5.0816006826e-01
  5.0840941775e-01
  5.0865864226e-01
  5.0890774197e-01
  5.0915671704e-01
  5.0940556765e-01
  5.0965429398e-01
  5.0990289621e-01
  5.1015137451e-01
  5.1039972904e-01
  5.1064795999e-01
  5.1089606753e-01
  5.1114405183e-01
  5.1139191307e-01
  5.1163965141e-01
  5.1188726703e-01
  5.1213476009e-01
  5.1238213078e-01
  5.1262937925e-01
  5.1287650569e-01
  5.1312351025e-01
  5.1337039311e-01
  5.1361715444e-01
  5.1386379441e-01
  5.1411031317e-01
  5.1435671091e-01
  5.1460298779e-01
  5.1484914398e-01
  5.1509517963e-01
  5.1534109493e-01
  5.1558689002e-01
  5.1583256509e-01
  5.1607812030e-01
  5.1632355580e-01
  5.1656887176e-01
  5.1681406835e-01
  5.1705914574e-01
  5.1730410408e-01
  5.1754894353e-01
  5.1779366427e-01
  5.1803826644e-01
  5.1828275022e-01
  5.1852711576e-01
  5.1877136323e-01
  5.1901549279e-01
  5.1925950459e-01
  5.1950339880e-01
  5.1974717558e-01
  5.1999083508e-01
  5.2023437746e-01
  5.2047780289e-01
  5.2072111152e-01
  5.2096430350e-01
  5.2120737901e-01
  5.2145033818e-01
  5.2169318119e-01
  5.2193590818e-01
  5.2217851931e-01
  5.2242101475e-01
  5.2266339463e-01
  5.2290565913e-01
  5.2314780838e-01
  5.2338984256e-01
  5.2363176180e-01
  5.2387356628e-01
  5.2411525613e-01
  5.2435683151e-01
  5.2459829257e-01
  5.2483963947e-01
  5.2508087237e-01
  5.2532199140e-01
  5.2556299672e-01
  5.2580388848e-01
  5.2604466684e-01
  5.2628533194e-01
  5.2652588393e-01
  5.2676632297e-01
  5.2700664920e-01
  5.2724686277e-01
  5.2748696383e-01
  5.2772695253e-01
  5.2796682902e-01
  5.2820659344e-01
  5.2844624594e-01
  5.2868578668e-01
  5.2892521578e-01
  5.2916453341e-01
  5.2940373971e-01
  5.2964283482e-01
  5.2988181889e-01
  5.3012069207e-01
  5.3035945450e-01
  5.3059810632e-01
  5.3083664768e-01
  5.3107507872e-01
  5.3131339958e-01
  5.3155161042e-01
  5.3178971137e-01
  5.3202770258e-01
  5.3226558418e-01
  5.3250335632e-01
  5.3274101915e-01
  5.3297857280e-01
  5.3321601741e-01
  5.3345335313e-01
  5.3369058009e-01
  5.3392769844e-01
  5.3416470832e-01
  5.3440160986e-01
  5.3463840321e-01
  5.3487508850e-01
  5.3511166588e-01
  5.3534813548e-01
  5.3558449743e-01
  5.3582075189e-01
  5.3605689899e-01
  5.3629293885e-01
  5.3652887163e-01
  5.3676469745e-01
  5.3700041646e-01
  5.3723602879e-01
  5.3747153457e-01
  5.3770693395e-01
  5.3794222705e-01
  5.3817741402e-01
  5.3841249498e-01
  5.3864747008e-01
  5.3888233943e-01
  5.3911710319e-01
  5.3935176149e-01
  5.3958631445e-01
  5.3982076221e-01
  5.4005510490e-01
  5.4028934266e-01
  5.4052347561e-01
  5.4075750390e-01
  5.4099142764e-01
  5.4122524698e-01
  5.4145896205e-01
  5.4169257297e-01
  5.4192607987e-01
  5.4215948289e-01
  5.4239278216e-01
  5.4262597781e-01
  5.4285906996e-01
  5.4309205874e-01
  5.4332494429e-01
  5.4355772674e-01
  5.4379040620e-01
  5.4402298281e-01
  5.4425545671e-01
  5.4448782801e-01
  5.4472009684e-01
  5.4495226333e-01
  5.4518432761e-01
  5.4541628980e-01
  5.4564815004e-01
  5.4587990844e-01
  5.4611156513e-01
  5.4634312025e-01
  5.4657457390e-01
  5.4680592623e-01
  5.4703717735e-01
