ocio/luts/NLog_to_lin.spi1d
Version 1
From 0.0000000000 1.0000000000
Length 4096
Components 1
{
  -7.5000000000e-03
  -7.4999999432e-03
  -7.4999995458e-03
  -7.4999984672e-03
  -7.4999963667e-03
  -7.4999929036e-03
  -7.4999877375e-03
  -7.4999805276e-03
  -7.4999709333e-03
  -7.4999586141e-03
  -7.4999432292e-03
  -7.4999244380e-03
  -7.4999019000e-03
  -7.4998752745e-03
  -7.4998442209e-03
  -7.4998083985e-03
  -7.4997674668e-03
  -7.4997210850e-03
  -7.4996689126e-03
  -7.4996106090e-03
  -7.4995458335e-03
  -7.4994742455e-03
  -7.4993955044e-03
  -7.4993092695e-03
  -7.4992152003e-03
  -7.4991129560e-03
  -7.4990021962e-03
  -7.4988825801e-03
  -7.4987537671e-03
  -7.4986154166e-03
  -7.4984671881e-03
  -7.4983087407e-03
  -7.4981397340e-03
  -7.4979598273e-03
  -7.4977686800e-03
  -7.4975659514e-03
  -7.4973513010e-03
  -7.4971243880e-03
  -7.4968848720e-03
  -7.4966324121e-03
  -7.4963666680e-03
  -7.4960872988e-03
  -7.4957939640e-03
  -7.4954863230e-03
  -7.4951640351e-03
  -7.4948267597e-03
  -7.4944741562e-03
  -7.4941058839e-03
  -7.4937216023e-03
  -7.4933209706e-03
  -7.4929036484e-03
  -7.4924692949e-03
  -7.4920175695e-03
  -7.4915481317e-03
  -7.4910606407e-03
  -7.4905547560e-03
  -7.4900301369e-03
  -7.4894864428e-03
  -7.4889233332e-03
  -7.4883404672e-03
  -7.4877375044e-03
  -7.4871141041e-03
  -7.4864699257e-03
  -7.4858046285e-03
  -7.4851178720e-03
  -7.4844093155e-03
  -7.4836786184e-03
  -7.4829254400e-03
  -7.4821494398e-03
  -7.4813502770e-03
  -7.4805276112e-03
  -7.4796811016e-03
  -7.4788104076e-03
  -7.4779151887e-03
  -7.4769951041e-03
  -7.4760498133e-03
  -7.4750789756e-03
  -7.4740822505e-03
  -7.4730592972e-03
  -7.4720097752e-03
  -7.4709333438e-03
  -7.4698296624e-03
  -7.4686983904e-03
  -7.4675391872e-03
  -7.4663517121e-03
  -7.4651356245e-03
  -7.4638905838e-03
  -7.4626162494e-03
  -7.4613122806e-03
  -7.4599783368e-03
  -7.4586140774e-03
  -7.4572191618e-03
  -7.4557932492e-03
  -7.4543359992e-03
  -7.4528470711e-03
  -7.4513261243e-03
  -7.4497728181e-03
  -7.4481868119e-03
  -7.4465677651e-03
  -7.4449153370e-03
  -7.4432291871e-03
  -7.4415089747e-03
  -7.4397543592e-03
  -7.4379649999e-03
  -7.4361405563e-03
  -7.4342806877e-03
  -7.4323850535e-03
  -7.4304533131e-03
  -7.4284851257e-03
  -7.4264801509e-03
  -7.4244380480e-03
  -7.4223584764e-03
  -7.4202410954e-03
  -7.4180855644e-03
  -7.4158915428e-03
  -7.4136586899e-03
  -7.4113866652e-03
  -7.4090751280e-03
  -7.4067237377e-03
  -7.4043321537e-03
  -7.4019000353e-03
  -7.3994270419e-03
  -7.3969128329e-03
  -7.3943570677e-03
  -7.3917594056e-03
  -7.3891195061e-03
  -7.3864370284e-03
  -7.3837116320e-03
  -7.3809429762e-03
  -7.3781307204e-03
  -7.3752745241e-03
  -7.3723740465e-03
  -7.3694289470e-03
  -7.3664388851e-03
  -7.3634035200e-03
  -7.3603225112e-03
  -7.3571955181e-03
  -7.3540221999e-03
  -7.3508022162e-03
  -7.3475352262e-03
  -7.3442208894e-03
  -7.3408588651e-03
  -7.3374488127e-03
  -7.3339903915e-03
  -7.3304832610e-03
  -7.3269270805e-03
  -7.3233215094e-03
  -7.3196662071e-03
  -7.3159608329e-03
  -7.3122050462e-03
  -7.3083985065e-03
  -7.3045408730e-03
  -7.3006318051e-03
  -7.2966709622e-03
  -7.2926580038e-03
  -7.2885925891e-03
  -7.2844743776e-03
  -7.2803030286e-03
  -7.2760782014e-03
  -7.2717995556e-03
  -7.2674667504e-03
  -7.2630794452e-03
  -7.2586372994e-03
  -7.2541399723e-03
  -7.2495871235e-03
  -7.2449784121e-03
  -7.2403134976e-03
  -7.2355920394e-03
  -7.2308136969e-03
  -7.2259781294e-03
  -7.2210849962e-03
  -7.2161339569e-03
  -7.2111246706e-03
  -7.2060567969e-03
  -7.2009299951e-03
  -7.1957439246e-03
  -7.1904982447e-03
  -7.1851926149e-03
  -7.1798266944e-03
  -7.1744001427e-03
  -7.1689126192e-03
  -7.1633637831e-03
  -7.1577532940e-03
  -7.1520808112e-03
  -7.1463459940e-03
  -7.1405485018e-03
  -7.1346879940e-03
  -7.1287641300e-03
  -7.1227765691e-03
  -7.1167249708e-03
  -7.1106089943e-03
  -7.1044282992e-03
  -7.0981825446e-03
  -7.0918713901e-03
  -7.0854944950e-03
  -7.0790515187e-03
  -7.0725421205e-03
  -7.0659659599e-03
  -7.0593226961e-03
  -7.0526119886e-03
  -7.0458334968e-03
  -7.0389868800e-03
  -7.0320717976e-03
  -7.0250879090e-03
  -7.0180348735e-03
  -7.0109123505e-03
  -7.0037199995e-03
  -6.9964574797e-03
  -6.9891244505e-03
  -6.9817205714e-03
  -6.9742455017e-03
  -6.9666989008e-03
  -6.9590804280e-03
  -6.9513897428e-03
  -6.9436265044e-03
  -6.9357903724e-03
  -6.9278810059e-03
  -6.9198980645e-03
  -6.9118412075e-03
  -6.9037100943e-03
  -6.8955043842e-03
  -6.8872237367e-03
  -6.8788678111e-03
  -6.8704362667e-03
  -6.8619287630e-03
  -6.8533449593e-03
  -6.8446845150e-03
  -6.8359470895e-03
  -6.8271323422e-03
  -6.8182399324e-03
  -6.8092695195e-03
  -6.8002207628e-03
  -6.7910933218e-03
  -6.7818868559e-03
  -6.7726010243e-03
  -6.7632354865e-03
  -6.7537899019e-03
  -6.7442639298e-03
  -6.7346572296e-03
  -6.7249694607e-03
  -6.7152002825e-03
  -6.7053493543e-03
  -6.6954163354e-03
  -6.6854008854e-03
  -6.6753026635e-03
  -6.6651213291e-03
  -6.6548565417e-03
  -6.6445079605e-03
  -6.6340752450e-03
  -6.6235580545e-03
  -6.6129560484e-03
  -6.6022688861e-03
  -6.5914962270e-03
  -6.5806377304e-03
  -6.5696930557e-03
  -6.5586618623e-03
  -6.5475438095e-03
  -6.5363385568e-03
  -6.5250457634e-03
  -6.5136650889e-03
  -6.5021961925e-03
  -6.4906387336e-03
  -6.4789923717e-03
  -6.4672567660e-03
  -6.4554315760e-03
  -6.4435164610e-03
  -6.4315110804e-03
  -6.4194150936e-03
  -6.4072281600e-03
  -6.3949499389e-03
  -6.3825800897e-03
  -6.3701182718e-03
  -6.3575641445e-03
  -6.3449173673e-03
  -6.3321775995e-03
  -6.3193445005e-03
  -6.3064177296e-03
  -6.2933969463e-03
  -6.2802818099e-03
  -6.2670719797e-03
  -6.2537671152e-03
  -6.2403668758e-03
  -6.2268709207e-03
  -6.2132789095e-03
  -6.1995905014e-03
  -6.1858053558e-03
  -6.1719231322e-03
  -6.1579434898e-03
  -6.1438660881e-03
  -6.1296905865e-03
  -6.1154166442e-03
  -6.1010439207e-03
  -6.0865720754e-03
  -6.0720007676e-03
  -6.0573296568e-03
  -6.0425584022e-03
  -6.0276866633e-03
  -6.0127140994e-03
  -5.9976403699e-03
  -5.9824651342e-03
  -5.9671880517e-03
  -5.9518087817e-03
  -5.9363269837e-03
  -5.9207423169e-03
  -5.9050544407e-03
  -5.8892630147e-03
  -5.8733676980e-03
  -5.8573681501e-03
  -5.8412640304e-03
  -5.8250549982e-03
  -5.8087407129e-03
  -5.7923208339e-03
  -5.7757950206e-03
  -5.7591629323e-03
  -5.7424242284e-03
  -5.7255785684e-03
  -5.7086256114e-03
  -5.6915650171e-03
  -5.6743964446e-03
  -5.6571195534e-03
  -5.6397340029e-03
  -5.6222394524e-03
  -5.6046355614e-03
  -5.5869219891e-03
  -5.5690983950e-03
  -5.5511644384e-03
  -5.5331197788e-03
  -5.5149640754e-03
  -5.4966969877e-03
  -5.4783181751e-03
  -5.4598272968e-03
  -5.4412240124e-03
  -5.4225079811e-03
  -5.4036788624e-03
  -5.3847363155e-03
  -5.3656800000e-03
  -5.3465095751e-03
  -5.3272247003e-03
  -5.3078250349e-03
  -5.2883102383e-03
  -5.2686799698e-03
  -5.2489338889e-03
  -5.2290716549e-03
  -5.2090929272e-03
  -5.1889973651e-03
  -5.1687846282e-03
  -5.1484543756e-03
  -5.1280062668e-03
  -5.1074399612e-03
  -5.0867551181e-03
  -5.0659513969e-03
  -5.0450284571e-03
  -5.0239859579e-03
  -5.0028235587e-03
  -4.9815409190e-03
  -4.9601376980e-03
  -4.9386135553e-03
  -4.9169681500e-03
  -4.8952011417e-03
  -4.8733121897e-03
  -4.8513009534e-03
  -4.8291670921e-03
  -4.8069102652e-03
  -4.7845301321e-03
  -4.7620263522e-03
  -4.7393985848e-03
  -4.7166464893e-03
  -4.6937697252e-03
  -4.6707679517e-03
  -4.6476408282e-03
  -4.6243880142e-03
  -4.6010091690e-03
  -4.5775039519e-03
  -4.5538720224e-03
  -4.5301130398e-03
  -4.5062266635e-03
  -4.4822125529e-03
  -4.4580703673e-03
  -4.4337997661e-03
  -4.4094004088e-03
  -4.3848719546e-03
  -4.3602140629e-03
  -4.3354263932e-03
  -4.3105086048e-03
  -4.2854603570e-03
  -4.2602813093e-03
  -4.2349711210e-03
  -4.2095294515e-03
  -4.1839559602e-03
  -4.1582503065e-03
  -4.1324121496e-03
  -4.1064411491e-03
  -4.0803369642e-03
  -4.0540992544e-03
  -4.0277276790e-03
  -4.0012218974e-03
  -3.9745815689e-03
  -3.9478063530e-03
  -3.9208959091e-03
  -3.8938498964e-03
  -3.8666679744e-03
  -3.8393498025e-03
  -3.8118950400e-03
  -3.7843033463e-03
  -3.7565743807e-03
  -3.7287078027e-03
  -3.7007032717e-03
  -3.6725604469e-03
  -3.6442789878e-03
  -3.6158585538e-03
  -3.5872988042e-03
  -3.5585993983e-03
  -3.5297599957e-03
  -3.5007802556e-03
  -3.4716598374e-03
  -3.4423984006e-03
  -3.4129956044e-03
  -3.3834511083e-03
  -3.3537645715e-03
  -3.3239356536e-03
  -3.2939640139e-03
  -3.2638493117e-03
  -3.2335912065e-03
  -3.2031893575e-03
  -3.1726434242e-03
  -3.1419530660e-03
  -3.1111179422e-03
  -3.0801377122e-03
  -3.0490120354e-03
  -3.0177405711e-03
  -2.9863229788e-03
  -2.9547589178e-03
  -2.9230480474e-03
  -2.8911900271e-03
  -2.8591845162e-03
  -2.8270311742e-03
  -2.7947296603e-03
  -2.7622796339e-03
  -2.7296807545e-03
  -2.6969326814e-03
  -2.6640350740e-03
  -2.6309875916e-03
  -2.5977898937e-03
  -2.5644416395e-03
  -2.5309424885e-03
  -2.4972921001e-03
  -2.4634901337e-03
  -2.4295362485e-03
  -2.3954301040e-03
  -2.3611713595e-03
  -2.3267596745e-03
  -2.2921947083e-03
  -2.2574761203e-03
  -2.2226035698e-03
  -2.1875767163e-03
  -2.1523952191e-03
  -2.1170587375e-03
  -2.0815669310e-03
  -2.0459194590e-03
  -2.0101159807e-03
  -1.9741561556e-03
  -1.9380396431e-03
  -1.9017661025e-03
  -1.8653351932e-03
  -1.8287465746e-03
  -1.7919999061e-03
  -1.7550948470e-03
  -1.7180310567e-03
  -1.6808081945e-03
  -1.6434259200e-03
  -1.6058838923e-03
  -1.5681817710e-03
  -1.5303192154e-03
  -1.4922958848e-03
  -1.4541114386e-03
  -1.4157655363e-03
  -1.3772578371e-03
  -1.3385880005e-03
  -1.2997556859e-03
  -1.2607605525e-03
  -1.2216022598e-03
  -1.1822804672e-03
  -1.1427948340e-03
  -1.1031450197e-03
  -1.0633306835e-03
  -1.0233514848e-03
  -9.8320708313e-04
  -9.4289713775e-04
  -9.0242130804e-04
  -8.6177925340e-04
  -8.2097063319e-04
  -7.7999510680e-04
  -7.3885233358e-04
  -6.9754197293e-04
  -6.5606368422e-04
  -6.1441712681e-04
  -5.7260196009e-04
  -5.3061784343e-04
  -4.8846443621e-04
  -4.4614139780e-04
  -4.0364838757e-04
  -3.6098506491e-04
  -3.1815108918e-04
  -2.7514611976e-04
  -2.3196981603e-04
  -1.8862183736e-04
  -1.4510184313e-04
  -1.0140949271e-04
  -5.7544445479e-05
  -1.3506360809e-05
  3.0705101923e-05
  7.5090283343e-05
  1.1964952408e-04
  1.6438316475e-04
  2.0929154598e-04
  2.5437500840e-04
  2.9963389263e-04
  3.4506853929e-04
  3.9067928902e-04
  4.3646648244e-04
  4.8243046016e-04
  5.2857156283e-04
  5.7489013105e-04
  6.2138650546e-04
  6.6806102668e-04
  7.1491403534e-04
  7.6194587206e-04
  8.0915687746e-04
  8.5654739217e-04
  9.0411775682e-04
  9.5186831203e-04
  9.9979939842e-04
  1.0479113566e-03
  1.0962045273e-03
  1.1446792510e-03
  1.1933358683e-03
  1.2421747200e-03
  1.2911961467e-03
  1.3404004888e-03
  1.3897880872e-03
  1.4393592824e-03
  1.4891144150e-03
  1.5390538257e-03
  1.5891778550e-03
  1.6394868437e-03
  1.6899811323e-03
  1.7406610614e-03
  1.7915269718e-03
  1.8425792039e-03
  1.8938180985e-03
  1.9452439961e-03
  1.9968572375e-03
  2.0486581631e-03
  2.1006471136e-03
  2.1528244298e-03
  2.2051904521e-03
  2.2577455212e-03
  2.3104899777e-03
  2.3634241623e-03
  2.4165484156e-03
  2.4698630781e-03
  2.5233684907e-03
  2.5770649937e-03
  2.6309529280e-03
  2.6850326340e-03
  2.7393044525e-03
  2.7937687241e-03
  2.8484257893e-03
  2.9032759888e-03
  2.9583196633e-03
  3.0135571533e-03
  3.0689887995e-03
  3.1246149425e-03
  3.1804359229e-03
  3.2364520814e-03
  3.2926637586e-03
  3.3490712950e-03
  3.4056750314e-03
  3.4624753084e-03
  3.5194724665e-03
  3.5766668464e-03
  3.6340587888e-03
  3.6916486342e-03
  3.7494367233e-03
  3.8074233967e-03
  3.8656089950e-03
  3.9239938589e-03
  3.9825783290e-03
  4.0413627458e-03
  4.1003474501e-03
  4.1595327825e-03
  4.2189190835e-03
  4.2785066938e-03
  4.3382959541e-03
  4.3982872049e-03
  4.4584807869e-03
  4.5188770406e-03
  4.5794763068e-03
  4.6402789261e-03
  4.7012852390e-03
  4.7624955863e-03
  4.8239103084e-03
  4.8855297462e-03
  4.9473542401e-03
  5.0093841307e-03
  5.0716197589e-03
  5.1340614650e-03
  5.1967095899e-03
  5.2595644740e-03
  5.3226264581e-03
  5.3858958827e-03
  5.4493730885e-03
  5.5130584161e-03
  5.5769522061e-03
  5.6410547992e-03
  5.7053665360e-03
  5.7698877570e-03
  5.8346188030e-03
  5.8995600145e-03
  5.9647117322e-03
  6.0300742967e-03
  6.0956480486e-03
  6.1614333286e-03
  6.2274304772e-03
  6.2936398352e-03
  6.3600617430e-03
  6.4266965414e-03
  6.4935445710e-03
  6.5606061724e-03
  6.6278816862e-03
  6.6953714531e-03
  6.7630758136e-03
  6.8309951084e-03
  6.8991296782e-03
  6.9674798635e-03
  7.0360460049e-03
  7.1048284432e-03
  7.1738275189e-03
  7.2430435726e-03
  7.3124769450e-03
  7.3821279767e-03
  7.4519970083e-03
  7.5220843805e-03
  7.5923904338e-03
  7.6629155090e-03
  7.7336599465e-03
  7.8046240871e-03
  7.8758082714e-03
  7.9472128400e-03
  8.0188381335e-03
  8.0906844925e-03
  8.1627522577e-03
  8.2350417697e-03
  8.3075533691e-03
  8.3802873966e-03
  8.4532441927e-03
  8.5264240982e-03
  8.5998274535e-03
  8.6734545994e-03
  8.7473058765e-03
  8.8213816253e-03
  8.8956821866e-03
  8.9702079009e-03
  9.0449591089e-03
  9.1199361512e-03
  9.1951393684e-03
  9.2705691012e-03
  9.3462256901e-03
  9.4221094758e-03
  9.4982207989e-03
  9.5745600001e-03
  9.6511274199e-03
  9.7279233990e-03
  9.8049482781e-03
  9.8822023977e-03
  9.9596860984e-03
  1.0037399721e-02
  1.0115343606e-02
  1.0193518094e-02
  1.0271923526e-02
  1.0350560242e-02
  1.0429428582e-02
  1.0508528889e-02
  1.0587861501e-02
  1.0667426761e-02
  1.0747225008e-02
  1.0827256583e-02
  1.0907521826e-02
  1.0988021079e-02
  1.1068754682e-02
  1.1149722975e-02
  1.1230926299e-02
  1.1312364995e-02
  1.1394039404e-02
  1.1475949866e-02
  1.1558096721e-02
  1.1640480311e-02
  1.1723100975e-02
  1.1805959055e-02
  1.1889054891e-02
  1.1972388825e-02
  1.2055961195e-02
  1.2139772343e-02
  1.2223822611e-02
  1.2308112337e-02
  1.2392641863e-02
  1.2477411530e-02
  1.2562421678e-02
  1.2647672648e-02
  1.2733164780e-02
  1.2818898416e-02
  1.2904873895e-02
  1.2991091558e-02
  1.3077551746e-02
  1.3164254800e-02
  1.3251201060e-02
  1.3338390866e-02
  1.3425824560e-02
  1.3513502482e-02
  1.3601424973e-02
  1.3689592373e-02
  1.3778005023e-02
  1.3866663264e-02
  1.3955567435e-02
  1.4044717879e-02
  1.4134114934e-02
  1.4223758943e-02
  1.4313650246e-02
  1.4403789183e-02
  1.4494176094e-02
  1.4584811322e-02
  1.4675695205e-02
  1.4766828085e-02
  1.4858210303e-02
  1.4949842199e-02
  1.5041724113e-02
  1.5133856387e-02
  1.5226239360e-02
  1.5318873374e-02
  1.5411758769e-02
  1.5504895886e-02
  1.5598285066e-02
  1.5691926648e-02
  1.5785820974e-02
  1.5879968385e-02
  1.5974369220e-02
  1.6069023821e-02
  1.6163932528e-02
  1.6259095682e-02
  1.6354513623e-02
  1.6450186692e-02
  1.6546115230e-02
  1.6642299577e-02
  1.6738740074e-02
  1.6835437062e-02
  1.6932390880e-02
  1.7029601871e-02
  1.7127070374e-02
  1.7224796730e-02
  1.7322781279e-02
  1.7421024363e-02
  1.7519526322e-02
  1.7618287497e-02
  1.7717308227e-02
  1.7816588854e-02
  1.7916129719e-02
  1.8015931162e-02
  1.8115993523e-02
  1.8216317144e-02
  1.8316902364e-02
  1.8417749525e-02
  1.8518858968e-02
  1.8620231032e-02
  1.8721866058e-02
  1.8823764388e-02
  1.8925926361e-02
  1.9028352318e-02
  1.9131042600e-02
  1.9233997548e-02
  1.9337217502e-02
  1.9440702803e-02
  1.9544453791e-02
  1.9648470807e-02
  1.9752754192e-02
  1.9857304286e-02
  1.9962121430e-02
  2.0067205965e-02
  2.0172558231e-02
  2.0278178568e-02
  2.0384067318e-02
  2.0490224821e-02
  2.0596651418e-02
  2.0703347449e-02
  2.0810313254e-02
  2.0917549176e-02
  2.1025055553e-02
  2.1132832727e-02
  2.1240881039e-02
  2.1349200829e-02
  2.1457792437e-02
  2.1566656205e-02
  2.1675792472e-02
  2.1785201580e-02
  2.1894883869e-02
  2.2004839680e-02
  2.2115069353e-02
  2.2225573230e-02
  2.2336351650e-02
  2.2447404954e-02
  2.2558733483e-02
  2.2670337578e-02
  2.2782217579e-02
  2.2894373827e-02
  2.3006806662e-02
  2.3119516425e-02
  2.3232503456e-02
  2.3345768097e-02
  2.3459310688e-02
  2.3573131570e-02
  2.3687231082e-02
  2.3801609567e-02
  2.3916267363e-02
  2.4031204813e-02
  2.4146422257e-02
  2.4261920034e-02
  2.4377698487e-02
  2.4493757955e-02
  2.4610098779e-02
  2.4726721300e-02
  2.4843625859e-02
  2.4960812795e-02
  2.5078282450e-02
  2.5196035165e-02
  2.5314071279e-02
  2.5432391134e-02
  2.5550995070e-02
  2.5669883428e-02
  2.5789056548e-02
  2.5908514771e-02
  2.6028258438e-02
  2.6148287889e-02
  2.6268603465e-02
  2.6389205506e-02
  2.6510094354e-02
  2.6631270348e-02
  2.6752733830e-02
  2.6874485140e-02
  2.6996524618e-02
  2.7118852606e-02
  2.7241469444e-02
  2.7364375472e-02
  2.7487571031e-02
  2.7611056462e-02
  2.7734832106e-02
  2.7858898302e-02
  2.7983255392e-02
  2.8107903717e-02
  2.8232843616e-02
  2.8358075431e-02
  2.8483599502e-02
  2.8609416170e-02
  2.8735525775e-02
  2.8861928658e-02
  2.8988625160e-02
  2.9115615621e-02
  2.9242900382e-02
  2.9370479783e-02
  2.9498354166e-02
  2.9626523870e-02
  2.9754989237e-02
  2.9883750607e-02
  3.0012808320e-02
  3.0142162718e-02
  3.0271814140e-02
  3.0401762929e-02
  3.0532009423e-02
  3.0662553964e-02
  3.0793396892e-02
  3.0924538549e-02
  3.1055979274e-02
  3.1187719408e-02
  3.1319759292e-02
  3.1452099267e-02
  3.1584739673e-02
  3.1717680851e-02
  3.1850923141e-02
  3.1984466884e-02
  3.2118312421e-02
  3.2252460092e-02
  3.2386910238e-02
  3.2521663199e-02
  3.2656719316e-02
  3.2792078931e-02
  3.2927742382e-02
  3.3063710012e-02
  3.3199982160e-02
  3.3336559168e-02
  3.3473441376e-02
  3.3610629124e-02
  3.3748122753e-02
  3.3885922604e-02
  3.4024029017e-02
  3.4162442333e-02
  3.4301162893e-02
  3.4440191038e-02
  3.4579527107e-02
  3.4719171441e-02
  3.4859124382e-02
  3.4999386270e-02
  3.5139957445e-02
  3.5280838247e-02
  3.5422029019e-02
  3.5563530100e-02
  3.5705341831e-02
  3.5847464552e-02
  3.5989898604e-02
  3.6132644328e-02
  3.6275702065e-02
  3.6419072154e-02
  3.6562754938e-02
  3.6706750755e-02
  3.6851059947e-02
  3.6995682855e-02
  3.7140619819e-02
  3.7285871180e-02
  3.7431437278e-02
  3.7577318454e-02
  3.7723515049e-02
  3.7870027403e-02
  3.8016855857e-02
  3.8164000751e-02
  3.8311462427e-02
  3.8459241224e-02
  3.8607337484e-02
  3.8755751547e-02
  3.8904483753e-02
  3.9053534444e-02
  3.9202903959e-02
  3.9352592640e-02
  3.9502600827e-02
  3.9652928861e-02
  3.9803577083e-02
  3.9954545832e-02
  4.0105835450e-02
  4.0257446277e-02
  4.0409378654e-02
  4.0561632922e-02
  4.0714209420e-02
  4.0867108491e-02
  4.1020330474e-02
  4.1173875710e-02
  4.1327744539e-02
  4.1481937303e-02
  4.1636454342e-02
  4.1791295996e-02
  4.1946462606e-02
  4.2101954513e-02
  4.2257772058e-02
  4.2413915580e-02
  4.2570385421e-02
  4.2727181921e-02
  4.2884305422e-02
  4.3041756262e-02
  4.3199534784e-02
  4.3357641328e-02
  4.3516076234e-02
  4.3674839843e-02
  4.3833932495e-02
  4.3993354532e-02
  4.4153106294e-02
  4.4313188121e-02
  4.4473600355e-02
  4.4634343335e-02
  4.4795417402e-02
  4.4956822898e-02
  4.5118560162e-02
  4.5280629536e-02
  4.5443031359e-02
  4.5605765973e-02
  4.5768833718e-02
  4.5932234934e-02
  4.6095969964e-02
  4.6260039146e-02
  4.6424442821e-02
  4.6589181331e-02
  4.6754255016e-02
  4.6919664217e-02
  4.7085409273e-02
  4.7251490526e-02
  4.7417908317e-02
  4.7584662986e-02
  4.7751754873e-02
  4.7919184319e-02
  4.8086951666e-02
  4.8255057253e-02
  4.8423501421e-02
  4.8592284510e-02
  4.8761406862e-02
  4.8930868818e-02
  4.9100670716e-02
  4.9270812899e-02
  4.9441295707e-02
  4.9612119481e-02
  4.9783284560e-02
  4.9954791287e-02
  5.0126640000e-02
  5.0298831042e-02
  5.0471364752e-02
  5.0644241472e-02
  5.0817461541e-02
  5.0991025301e-02
  5.1164933092e-02
  5.1339185255e-02
  5.1513782130e-02
  5.1688724058e-02
  5.1864011380e-02
  5.2039644436e-02
  5.2215623567e-02
  5.2391949114e-02
  5.2568621416e-02
  5.2745640815e-02
  5.2923007652e-02
  5.3100722267e-02
  5.3278785000e-02
  5.3457196193e-02
  5.3635956185e-02
  5.3815065318e-02
  5.3994523932e-02
  5.4174332368e-02
  5.4354490966e-02
  5.4535000067e-02
  5.4715860012e-02
  5.4897071141e-02
  5.5078633795e-02
  5.5260548314e-02
  5.5442815040e-02
  5.5625434312e-02
  5.5808406472e-02
  5.5991731859e-02
  5.6175410816e-02
  5.6359443681e-02
  5.6543830797e-02
  5.6728572503e-02
  5.6913669140e-02
  5.7099121048e-02
  5.7284928570e-02
  5.7471092044e-02
  5.7657611811e-02
  5.7844488213e-02
  5.8031721590e-02
  5.8219312283e-02
  5.8407260631e-02
  5.8595566976e-02
  5.8784231659e-02
  5.8973255020e-02
  5.9162637399e-02
  5.9352379137e-02
  5.9542480576e-02
  5.9732942055e-02
  5.9923763915e-02
  6.0114946496e-02
  6.0306490140e-02
  6.0498395187e-02
  6.0690661978e-02
  6.0883290853e-02
  6.1076282153e-02
  6.1269636218e-02
  6.1463353390e-02
  6.1657434008e-02
  6.1851878413e-02
  6.2046686947e-02
  6.2241859949e-02
  6.2437397760e-02
  6.2633300722e-02
  6.2829569173e-02
  6.3026203456e-02
  6.3223203911e-02
  6.3420570878e-02
  6.3618304698e-02
  6.3816405711e-02
  6.4014874259e-02
  6.4213710682e-02
  6.4412915320e-02
  6.4612488514e-02
  6.4812430605e-02
  6.5012741934e-02
  6.5213422840e-02
  6.5414473665e-02
  6.5615894750e-02
  6.5817686434e-02
  6.6019849058e-02
  6.6222382964e-02
  6.6425288492e-02
  6.6628565981e-02
  6.6832215774e-02
  6.7036238211e-02
  6.7240633631e-02
  6.7445402377e-02
  6.7650544788e-02
  6.7856061205e-02
  6.8061951969e-02
  6.8268217420e-02
  6.8474857900e-02
  6.8681873748e-02
  6.8889265305e-02
  6.9097032912e-02
  6.9305176909e-02
  6.9513697638e-02
  6.9722595438e-02
  6.9931870651e-02
  7.0141523616e-02
  7.0351554676e-02
  7.0561964169e-02
  7.0772752438e-02
  7.0983919822e-02
  7.1195466662e-02
  7.1407393298e-02
  7.1619700072e-02
  7.1832387325e-02
  7.2045455395e-02
  7.2258904625e-02
  7.2472735355e-02
  7.2686947925e-02
  7.2901542677e-02
  7.3116519950e-02
  7.3331880085e-02
  7.3547623424e-02
  7.3763750306e-02
  7.3980261072e-02
  7.4197156063e-02
  7.4414435620e-02
  7.4632100083e-02
  7.4850149792e-02
  7.5068585089e-02
  7.5287406314e-02
  7.5506613808e-02
  7.5726207911e-02
  7.5946188963e-02
  7.6166557306e-02
  7.6387313280e-02
  7.6608457226e-02
  7.6829989485e-02
  7.7051910396e-02
  7.7274220301e-02
  7.7496919540e-02
  7.7720008454e-02
  7.7943487383e-02
  7.8167356669e-02
  7.8391616651e-02
  7.8616267671e-02
  7.8841310068e-02
  7.9066744185e-02
  7.9292570360e-02
  7.9518788936e-02
  7.9745400251e-02
  7.9972404648e-02
  8.0199802467e-02
  8.0427594048e-02
  8.0655779732e-02
  8.0884359860e-02
  8.1113334771e-02
  8.1342704808e-02
  8.1572470310e-02
  8.1802631619e-02
  8.2033189074e-02
  8.2264143016e-02
  8.2495493786e-02
  8.2727241725e-02
  8.2959387174e-02
  8.3191930472e-02
  8.3424871960e-02
  8.3658211980e-02
  8.3891950871e-02
  8.4126088975e-02
  8.4360626632e-02
  8.4595564182e-02
  8.4830901967e-02
  8.5066640326e-02
  8.5302779601e-02
  8.5539320132e-02
  8.5776262260e-02
  8.6013606325e-02
  8.6251352668e-02
  8.6489501630e-02
  8.6728053551e-02
  8.6967008771e-02
  8.7206367633e-02
  8.7446130475e-02
  8.7686297639e-02
  8.7926869465e-02
  8.8167846295e-02
  8.8409228468e-02
  8.8651016325e-02
  8.8893210207e-02
  8.9135810455e-02
  8.9378817408e-02
  8.9622231409e-02
  8.9866052797e-02
  9.0110281912e-02
  9.0354919097e-02
  9.0599964690e-02
  9.0845419034e-02
  9.1091282468e-02
  9.1337555333e-02
  9.1584237969e-02
  9.1831330718e-02
  9.2078833920e-02
  9.2326747916e-02
  9.2575073046e-02
  9.2823809651e-02
  9.3072958071e-02
  9.3322518647e-02
  9.3572491720e-02
  9.3822877631e-02
  9.4073676719e-02
  9.4324889326e-02
  9.4576515792e-02
  9.4828556458e-02
  9.5081011665e-02
  9.5333881752e-02
  9.5587167062e-02
  9.5840867934e-02
  9.6094984708e-02
  9.6349517726e-02
  9.6604467329e-02
  9.6859833856e-02
  9.7115617649e-02
  9.7371819048e-02
  9.7628438394e-02
  9.7885476027e-02
  9.8142932288e-02
  9.8400807517e-02
